P3
# generated by demos/pathing/proto_map.jl
140 60
255
35 43 52 35 43 52 35 43 52 35 43 52 35 43 52 35 43 52 35 43 52 35 43 52 35 43 52 35 43 52 35 43 52 35 43 52 35 43 52 35 43 52 35 43 52 35 43 52 35 43 52 35 43 52 35 43 52 35 43 52 35 43 52 35 43 52 35 43 52 35 43 52 35 43 52 35 43 52 35 43 52 35 43 52 35 43 52 35 43 52 35 43 52 35 43 52 35 43 52 35 43 52 35 43 52 35 43 52 35 43 52 35 43 52 35 43 52 35 43 52 35 43 52 35 43 52 35 43 52 35 43 52 35 43 52 35 43 52 35 43 52 35 43 52 35 43 52 35 43 52 35 43 52 35 43 52 35 43 52 35 43 52 35 43 52 35 43 52 35 43 52 35 43 52 35 43 52 35 43 52 35 43 52 35 43 52 35 43 52 35 43 52 35 43 52 35 43 52 35 43 52 35 43 52 35 43 52 35 43 52 35 43 52 35 43 52 35 43 52 35 43 52 35 43 52 35 43 52 35 43 52 35 43 52 35 43 52 35 43 52 35 43 52 35 43 52 35 43 52 35 43 52 35 43 52 35 43 52 35 43 52 35 43 52 35 43 52 35 43 52 35 43 52 35 43 52 35 43 52 35 43 52 35 43 52 35 43 52 35 43 52 35 43 52 35 43 52 35 43 52 35 43 52 35 43 52 35 43 52 35 43 52 35 43 52 35 43 52 35 43 52 35 43 52 35 43 52 35 43 52 35 43 52 35 43 52 35 43 52 35 43 52 35 43 52 35 43 52 35 43 52 35 43 52 35 43 52 35 43 52 35 43 52 35 43 52 35 43 52 35 43 52 35 43 52 35 43 52 35 43 52 35 43 52 35 43 52 35 43 52 35 43 52 35 43 52 35 43 52 35 43 52 35 43 52 35 43 52 35 43 52 35 43 52 35 43 52 35 43 52 
35 43 52 35 43 52 35 43 52 35 43 52 35 43 52 35 43 52 35 43 52 35 43 52 35 43 52 35 43 52 35 43 52 35 43 52 35 43 52 35 43 52 35 43 52 35 43 52 35 43 52 35 43 52 35 43 52 35 43 52 35 43 52 35 43 52 35 43 52 35 43 52 35 43 52 35 43 52 35 43 52 35 43 52 35 43 52 35 43 52 35 43 52 35 43 52 35 43 52 35 43 52 35 43 52 35 43 52 35 43 52 35 43 52 35 43 52 35 43 52 35 43 52 35 43 52 35 43 52 35 43 52 35 43 52 35 43 52 35 43 52 35 43 52 35 43 52 35 43 52 35 43 52 35 43 52 35 43 52 35 43 52 35 43 52 35 43 52 35 43 52 35 43 52 35 43 52 35 43 52 35 43 52 35 43 52 35 43 52 35 43 52 35 43 52 35 43 52 35 43 52 35 43 52 35 43 52 35 43 52 35 43 52 35 43 52 35 43 52 35 43 52 35 43 52 35 43 52 35 43 52 35 43 52 35 43 52 35 43 52 35 43 52 35 43 52 35 43 52 35 43 52 35 43 52 35 43 52 35 43 52 35 43 52 35 43 52 35 43 52 35 43 52 35 43 52 35 43 52 35 43 52 35 43 52 35 43 52 35 43 52 35 43 52 35 43 52 35 43 52 35 43 52 35 43 52 35 43 52 35 43 52 35 43 52 35 43 52 35 43 52 35 43 52 35 43 52 35 43 52 35 43 52 35 43 52 35 43 52 35 43 52 35 43 52 35 43 52 35 43 52 35 43 52 35 43 52 35 43 52 35 43 52 35 43 52 35 43 52 35 43 52 35 43 52 35 43 52 35 43 52 35 43 52 35 43 52 35 43 52 35 43 52 35 43 52 35 43 52 35 43 52 35 43 52 35 43 52 35 43 52 35 43 52 35 43 52 35 43 52 
35 43 52 35 43 52 35 43 52 35 43 52 35 43 52 35 43 52 35 43 52 35 43 52 35 43 52 35 43 52 35 43 52 35 43 52 35 43 52 35 43 52 35 43 52 35 43 52 35 43 52 35 43 52 35 43 52 35 43 52 35 43 52 35 43 52 35 43 52 35 43 52 35 43 52 35 43 52 35 43 52 35 43 52 35 43 52 35 43 52 35 43 52 35 43 52 35 43 52 35 43 52 35 43 52 35 43 52 35 43 52 35 43 52 35 43 52 35 43 52 35 43 52 35 43 52 35 43 52 35 43 52 35 43 52 35 43 52 35 43 52 35 43 52 35 43 52 35 43 52 35 43 52 35 43 52 35 43 52 35 43 52 35 43 52 35 43 52 35 43 52 35 43 52 35 43 52 35 43 52 35 43 52 35 43 52 35 43 52 35 43 52 35 43 52 35 43 52 35 43 52 35 43 52 35 43 52 35 43 52 35 43 52 35 43 52 35 43 52 35 43 52 35 43 52 35 43 52 35 43 52 35 43 52 35 43 52 35 43 52 35 43 52 35 43 52 35 43 52 35 43 52 35 43 52 35 43 52 35 43 52 35 43 52 35 43 52 35 43 52 35 43 52 35 43 52 35 43 52 35 43 52 35 43 52 35 43 52 35 43 52 35 43 52 35 43 52 35 43 52 35 43 52 35 43 52 35 43 52 35 43 52 35 43 52 35 43 52 35 43 52 35 43 52 35 43 52 35 43 52 35 43 52 35 43 52 35 43 52 35 43 52 35 43 52 35 43 52 35 43 52 35 43 52 35 43 52 35 43 52 35 43 52 35 43 52 35 43 52 35 43 52 35 43 52 35 43 52 35 43 52 35 43 52 35 43 52 35 43 52 35 43 52 35 43 52 35 43 52 35 43 52 35 43 52 35 43 52 35 43 52 35 43 52 35 43 52 35 43 52 
35 43 52 35 43 52 35 43 52 35 43 52 35 43 52 35 43 52 35 43 52 35 43 52 35 43 52 35 43 52 35 43 52 35 43 52 35 43 52 35 43 52 35 43 52 35 43 52 35 43 52 35 43 52 35 43 52 35 43 52 35 43 52 35 43 52 35 43 52 35 43 52 35 43 52 35 43 52 35 43 52 35 43 52 35 43 52 35 43 52 35 43 52 35 43 52 35 43 52 35 43 52 35 43 52 35 43 52 35 43 52 35 43 52 35 43 52 35 43 52 35 43 52 35 43 52 35 43 52 35 43 52 35 43 52 35 43 52 35 43 52 35 43 52 35 43 52 35 43 52 35 43 52 35 43 52 35 43 52 35 43 52 35 43 52 35 43 52 35 43 52 35 43 52 35 43 52 35 43 52 35 43 52 35 43 52 35 43 52 35 43 52 35 43 52 35 43 52 35 43 52 35 43 52 35 43 52 35 43 52 35 43 52 35 43 52 35 43 52 35 43 52 35 43 52 35 43 52 35 43 52 35 43 52 35 43 52 35 43 52 35 43 52 35 43 52 35 43 52 35 43 52 35 43 52 35 43 52 35 43 52 35 43 52 35 43 52 35 43 52 35 43 52 35 43 52 35 43 52 35 43 52 35 43 52 35 43 52 35 43 52 35 43 52 35 43 52 35 43 52 35 43 52 35 43 52 35 43 52 35 43 52 35 43 52 35 43 52 35 43 52 35 43 52 35 43 52 35 43 52 35 43 52 35 43 52 35 43 52 35 43 52 35 43 52 35 43 52 35 43 52 35 43 52 35 43 52 35 43 52 35 43 52 35 43 52 35 43 52 35 43 52 35 43 52 35 43 52 35 43 52 35 43 52 35 43 52 35 43 52 35 43 52 35 43 52 35 43 52 35 43 52 35 43 52 35 43 52 35 43 52 35 43 52 35 43 52 35 43 52 
35 43 52 35 43 52 35 43 52 35 43 52 35 43 52 35 43 52 35 43 52 35 43 52 35 43 52 35 43 52 35 43 52 35 43 52 35 43 52 35 43 52 35 43 52 35 43 52 35 43 52 35 43 52 35 43 52 35 43 52 35 43 52 35 43 52 35 43 52 35 43 52 35 43 52 35 43 52 35 43 52 35 43 52 35 43 52 35 43 52 35 43 52 35 43 52 35 43 52 35 43 52 35 43 52 35 43 52 35 43 52 35 43 52 35 43 52 35 43 52 35 43 52 35 43 52 35 43 52 35 43 52 35 43 52 35 43 52 35 43 52 35 43 52 35 43 52 35 43 52 35 43 52 35 43 52 35 43 52 35 43 52 35 43 52 35 43 52 35 43 52 35 43 52 35 43 52 35 43 52 35 43 52 35 43 52 35 43 52 35 43 52 35 43 52 35 43 52 35 43 52 35 43 52 35 43 52 35 43 52 35 43 52 35 43 52 35 43 52 35 43 52 35 43 52 35 43 52 35 43 52 35 43 52 35 43 52 35 43 52 35 43 52 35 43 52 35 43 52 35 43 52 35 43 52 35 43 52 35 43 52 35 43 52 226 167 59 226 167 59 226 167 59 226 167 59 35 43 52 35 43 52 35 43 52 35 43 52 35 43 52 35 43 52 35 43 52 35 43 52 35 43 52 35 43 52 35 43 52 35 43 52 35 43 52 35 43 52 35 43 52 35 43 52 35 43 52 35 43 52 35 43 52 35 43 52 35 43 52 35 43 52 35 43 52 35 43 52 35 43 52 35 43 52 35 43 52 35 43 52 35 43 52 35 43 52 35 43 52 35 43 52 35 43 52 35 43 52 35 43 52 35 43 52 35 43 52 35 43 52 35 43 52 35 43 52 35 43 52 35 43 52 35 43 52 35 43 52 35 43 52 35 43 52 35 43 52 35 43 52 
35 43 52 35 43 52 35 43 52 35 43 52 35 43 52 35 43 52 35 43 52 35 43 52 35 43 52 35 43 52 35 43 52 35 43 52 35 43 52 35 43 52 35 43 52 35 43 52 35 43 52 35 43 52 35 43 52 35 43 52 35 43 52 35 43 52 35 43 52 35 43 52 35 43 52 35 43 52 35 43 52 35 43 52 35 43 52 35 43 52 35 43 52 35 43 52 35 43 52 35 43 52 35 43 52 35 43 52 35 43 52 35 43 52 35 43 52 35 43 52 35 43 52 35 43 52 35 43 52 35 43 52 35 43 52 35 43 52 35 43 52 35 43 52 35 43 52 35 43 52 35 43 52 35 43 52 35 43 52 35 43 52 35 43 52 35 43 52 35 43 52 35 43 52 35 43 52 35 43 52 35 43 52 35 43 52 35 43 52 35 43 52 35 43 52 35 43 52 35 43 52 35 43 52 35 43 52 35 43 52 35 43 52 35 43 52 35 43 52 35 43 52 35 43 52 35 43 52 35 43 52 35 43 52 35 43 52 35 43 52 35 43 52 35 43 52 35 43 52 35 43 52 35 43 52 35 43 52 35 43 52 35 43 52 226 167 59 226 167 59 226 167 59 226 167 59 35 43 52 35 43 52 35 43 52 35 43 52 35 43 52 35 43 52 35 43 52 35 43 52 35 43 52 35 43 52 35 43 52 35 43 52 35 43 52 35 43 52 35 43 52 35 43 52 35 43 52 35 43 52 35 43 52 35 43 52 35 43 52 35 43 52 35 43 52 35 43 52 35 43 52 35 43 52 35 43 52 35 43 52 35 43 52 35 43 52 35 43 52 35 43 52 35 43 52 35 43 52 35 43 52 35 43 52 35 43 52 35 43 52 35 43 52 35 43 52 35 43 52 35 43 52 35 43 52 35 43 52 35 43 52 35 43 52 35 43 52 35 43 52 
35 43 52 35 43 52 35 43 52 35 43 52 35 43 52 35 43 52 35 43 52 35 43 52 35 43 52 35 43 52 35 43 52 35 43 52 35 43 52 35 43 52 35 43 52 35 43 52 35 43 52 35 43 52 35 43 52 35 43 52 35 43 52 35 43 52 35 43 52 35 43 52 35 43 52 35 43 52 35 43 52 35 43 52 35 43 52 35 43 52 35 43 52 35 43 52 35 43 52 35 43 52 35 43 52 35 43 52 35 43 52 35 43 52 35 43 52 35 43 52 35 43 52 35 43 52 35 43 52 35 43 52 35 43 52 35 43 52 35 43 52 35 43 52 35 43 52 35 43 52 35 43 52 35 43 52 35 43 52 35 43 52 35 43 52 35 43 52 35 43 52 35 43 52 35 43 52 35 43 52 35 43 52 35 43 52 35 43 52 35 43 52 35 43 52 35 43 52 35 43 52 35 43 52 35 43 52 35 43 52 35 43 52 35 43 52 35 43 52 35 43 52 35 43 52 35 43 52 35 43 52 35 43 52 35 43 52 35 43 52 35 43 52 35 43 52 35 43 52 35 43 52 35 43 52 35 43 52 35 43 52 35 43 52 226 167 59 226 167 59 226 167 59 226 167 59 35 43 52 35 43 52 35 43 52 35 43 52 35 43 52 35 43 52 35 43 52 35 43 52 35 43 52 35 43 52 35 43 52 35 43 52 35 43 52 35 43 52 35 43 52 35 43 52 35 43 52 35 43 52 35 43 52 35 43 52 35 43 52 35 43 52 35 43 52 35 43 52 35 43 52 35 43 52 35 43 52 35 43 52 35 43 52 35 43 52 35 43 52 35 43 52 35 43 52 35 43 52 35 43 52 35 43 52 35 43 52 35 43 52 35 43 52 35 43 52 35 43 52 35 43 52 35 43 52 35 43 52 35 43 52 35 43 52 35 43 52 35 43 52 
35 43 52 35 43 52 35 43 52 35 43 52 35 43 52 35 43 52 35 43 52 35 43 52 35 43 52 35 43 52 35 43 52 35 43 52 35 43 52 35 43 52 35 43 52 35 43 52 35 43 52 35 43 52 35 43 52 35 43 52 35 43 52 35 43 52 35 43 52 35 43 52 35 43 52 35 43 52 35 43 52 35 43 52 35 43 52 35 43 52 35 43 52 35 43 52 35 43 52 35 43 52 35 43 52 35 43 52 35 43 52 35 43 52 35 43 52 35 43 52 35 43 52 35 43 52 35 43 52 35 43 52 35 43 52 35 43 52 35 43 52 35 43 52 35 43 52 35 43 52 35 43 52 35 43 52 35 43 52 35 43 52 35 43 52 35 43 52 35 43 52 35 43 52 35 43 52 35 43 52 35 43 52 35 43 52 35 43 52 35 43 52 35 43 52 35 43 52 35 43 52 35 43 52 35 43 52 35 43 52 35 43 52 35 43 52 35 43 52 35 43 52 35 43 52 35 43 52 35 43 52 35 43 52 35 43 52 35 43 52 35 43 52 35 43 52 35 43 52 35 43 52 35 43 52 35 43 52 35 43 52 35 43 52 226 167 59 226 167 59 226 167 59 226 167 59 35 43 52 35 43 52 35 43 52 35 43 52 35 43 52 35 43 52 35 43 52 35 43 52 35 43 52 35 43 52 35 43 52 35 43 52 35 43 52 35 43 52 35 43 52 35 43 52 35 43 52 35 43 52 35 43 52 35 43 52 35 43 52 35 43 52 35 43 52 35 43 52 35 43 52 35 43 52 35 43 52 35 43 52 35 43 52 35 43 52 35 43 52 35 43 52 35 43 52 35 43 52 35 43 52 35 43 52 35 43 52 35 43 52 35 43 52 35 43 52 35 43 52 35 43 52 35 43 52 35 43 52 35 43 52 35 43 52 35 43 52 35 43 52 
35 43 52 35 43 52 35 43 52 35 43 52 35 43 52 35 43 52 35 43 52 35 43 52 35 43 52 35 43 52 35 43 52 35 43 52 35 43 52 35 43 52 35 43 52 35 43 52 35 43 52 35 43 52 35 43 52 35 43 52 35 43 52 35 43 52 35 43 52 35 43 52 35 43 52 35 43 52 35 43 52 35 43 52 35 43 52 35 43 52 35 43 52 35 43 52 35 43 52 35 43 52 35 43 52 35 43 52 35 43 52 35 43 52 35 43 52 35 43 52 35 43 52 35 43 52 35 43 52 35 43 52 35 43 52 35 43 52 35 43 52 35 43 52 35 43 52 35 43 52 35 43 52 35 43 52 35 43 52 35 43 52 35 43 52 35 43 52 35 43 52 35 43 52 35 43 52 35 43 52 35 43 52 35 43 52 35 43 52 35 43 52 35 43 52 35 43 52 35 43 52 35 43 52 35 43 52 35 43 52 35 43 52 35 43 52 35 43 52 35 43 52 35 43 52 35 43 52 35 43 52 35 43 52 35 43 52 35 43 52 35 43 52 35 43 52 35 43 52 35 43 52 35 43 52 35 43 52 35 43 52 35 43 52 166 166 166 166 166 166 166 166 166 166 166 166 35 43 52 35 43 52 35 43 52 35 43 52 35 43 52 35 43 52 35 43 52 35 43 52 35 43 52 35 43 52 35 43 52 35 43 52 35 43 52 35 43 52 35 43 52 35 43 52 35 43 52 35 43 52 35 43 52 35 43 52 35 43 52 35 43 52 35 43 52 35 43 52 35 43 52 35 43 52 35 43 52 35 43 52 35 43 52 35 43 52 35 43 52 35 43 52 35 43 52 35 43 52 35 43 52 35 43 52 35 43 52 35 43 52 35 43 52 35 43 52 35 43 52 35 43 52 35 43 52 35 43 52 35 43 52 35 43 52 35 43 52 35 43 52 
35 43 52 35 43 52 35 43 52 35 43 52 35 43 52 35 43 52 35 43 52 35 43 52 35 43 52 35 43 52 35 43 52 35 43 52 35 43 52 35 43 52 35 43 52 35 43 52 35 43 52 35 43 52 35 43 52 35 43 52 35 43 52 35 43 52 35 43 52 35 43 52 35 43 52 35 43 52 35 43 52 35 43 52 35 43 52 35 43 52 35 43 52 35 43 52 35 43 52 35 43 52 35 43 52 35 43 52 35 43 52 35 43 52 35 43 52 35 43 52 35 43 52 35 43 52 35 43 52 35 43 52 35 43 52 35 43 52 35 43 52 35 43 52 35 43 52 35 43 52 35 43 52 35 43 52 35 43 52 35 43 52 35 43 52 35 43 52 35 43 52 35 43 52 35 43 52 35 43 52 35 43 52 35 43 52 35 43 52 35 43 52 35 43 52 35 43 52 35 43 52 35 43 52 35 43 52 35 43 52 35 43 52 35 43 52 35 43 52 35 43 52 35 43 52 35 43 52 35 43 52 35 43 52 35 43 52 35 43 52 35 43 52 35 43 52 35 43 52 35 43 52 35 43 52 35 43 52 35 43 52 35 43 52 166 166 166 166 166 166 166 166 166 166 166 166 35 43 52 35 43 52 35 43 52 35 43 52 35 43 52 35 43 52 35 43 52 35 43 52 35 43 52 35 43 52 35 43 52 35 43 52 35 43 52 35 43 52 35 43 52 35 43 52 35 43 52 35 43 52 35 43 52 35 43 52 35 43 52 35 43 52 35 43 52 35 43 52 35 43 52 35 43 52 35 43 52 35 43 52 35 43 52 35 43 52 35 43 52 35 43 52 35 43 52 35 43 52 35 43 52 35 43 52 35 43 52 35 43 52 35 43 52 35 43 52 35 43 52 35 43 52 35 43 52 35 43 52 35 43 52 35 43 52 35 43 52 35 43 52 
35 43 52 35 43 52 35 43 52 35 43 52 35 43 52 35 43 52 35 43 52 35 43 52 35 43 52 35 43 52 35 43 52 35 43 52 35 43 52 35 43 52 35 43 52 35 43 52 35 43 52 35 43 52 35 43 52 35 43 52 35 43 52 35 43 52 35 43 52 35 43 52 35 43 52 35 43 52 35 43 52 35 43 52 35 43 52 35 43 52 35 43 52 35 43 52 35 43 52 35 43 52 35 43 52 35 43 52 35 43 52 35 43 52 35 43 52 35 43 52 35 43 52 35 43 52 35 43 52 35 43 52 35 43 52 35 43 52 35 43 52 35 43 52 35 43 52 35 43 52 35 43 52 35 43 52 35 43 52 35 43 52 35 43 52 35 43 52 35 43 52 35 43 52 35 43 52 35 43 52 35 43 52 35 43 52 35 43 52 35 43 52 35 43 52 35 43 52 35 43 52 35 43 52 35 43 52 35 43 52 35 43 52 35 43 52 35 43 52 35 43 52 35 43 52 35 43 52 35 43 52 35 43 52 35 43 52 35 43 52 35 43 52 35 43 52 35 43 52 35 43 52 35 43 52 35 43 52 35 43 52 35 43 52 166 166 166 166 166 166 166 166 166 166 166 166 35 43 52 35 43 52 35 43 52 35 43 52 35 43 52 35 43 52 35 43 52 35 43 52 35 43 52 35 43 52 35 43 52 35 43 52 35 43 52 35 43 52 35 43 52 35 43 52 35 43 52 35 43 52 35 43 52 35 43 52 35 43 52 35 43 52 35 43 52 35 43 52 35 43 52 35 43 52 35 43 52 35 43 52 35 43 52 35 43 52 35 43 52 35 43 52 35 43 52 35 43 52 35 43 52 35 43 52 35 43 52 35 43 52 35 43 52 35 43 52 35 43 52 35 43 52 35 43 52 35 43 52 35 43 52 35 43 52 35 43 52 35 43 52 
35 43 52 35 43 52 35 43 52 35 43 52 35 43 52 35 43 52 35 43 52 35 43 52 35 43 52 35 43 52 35 43 52 35 43 52 35 43 52 35 43 52 35 43 52 35 43 52 35 43 52 35 43 52 35 43 52 35 43 52 35 43 52 35 43 52 35 43 52 35 43 52 35 43 52 35 43 52 35 43 52 35 43 52 35 43 52 35 43 52 35 43 52 35 43 52 35 43 52 35 43 52 35 43 52 35 43 52 35 43 52 35 43 52 35 43 52 35 43 52 35 43 52 35 43 52 35 43 52 35 43 52 35 43 52 35 43 52 35 43 52 35 43 52 35 43 52 35 43 52 35 43 52 35 43 52 35 43 52 35 43 52 35 43 52 35 43 52 35 43 52 35 43 52 35 43 52 35 43 52 35 43 52 35 43 52 35 43 52 35 43 52 35 43 52 35 43 52 35 43 52 35 43 52 35 43 52 35 43 52 35 43 52 35 43 52 35 43 52 35 43 52 35 43 52 35 43 52 35 43 52 35 43 52 35 43 52 35 43 52 35 43 52 35 43 52 35 43 52 35 43 52 35 43 52 35 43 52 35 43 52 35 43 52 166 166 166 166 166 166 166 166 166 166 166 166 35 43 52 35 43 52 35 43 52 35 43 52 35 43 52 35 43 52 35 43 52 35 43 52 35 43 52 35 43 52 35 43 52 35 43 52 35 43 52 35 43 52 35 43 52 35 43 52 35 43 52 35 43 52 35 43 52 35 43 52 35 43 52 35 43 52 35 43 52 35 43 52 35 43 52 35 43 52 35 43 52 35 43 52 35 43 52 35 43 52 35 43 52 35 43 52 35 43 52 35 43 52 35 43 52 35 43 52 35 43 52 35 43 52 35 43 52 35 43 52 35 43 52 35 43 52 35 43 52 35 43 52 35 43 52 35 43 52 35 43 52 35 43 52 
35 43 52 35 43 52 35 43 52 35 43 52 35 43 52 35 43 52 35 43 52 35 43 52 35 43 52 35 43 52 35 43 52 35 43 52 35 43 52 35 43 52 35 43 52 35 43 52 35 43 52 35 43 52 35 43 52 35 43 52 35 43 52 35 43 52 35 43 52 35 43 52 35 43 52 35 43 52 35 43 52 35 43 52 35 43 52 35 43 52 35 43 52 35 43 52 35 43 52 35 43 52 35 43 52 35 43 52 35 43 52 35 43 52 35 43 52 35 43 52 35 43 52 35 43 52 35 43 52 35 43 52 35 43 52 35 43 52 35 43 52 35 43 52 35 43 52 35 43 52 35 43 52 35 43 52 35 43 52 35 43 52 35 43 52 35 43 52 35 43 52 35 43 52 35 43 52 35 43 52 35 43 52 35 43 52 35 43 52 35 43 52 35 43 52 35 43 52 35 43 52 35 43 52 35 43 52 35 43 52 35 43 52 35 43 52 35 43 52 35 43 52 35 43 52 35 43 52 35 43 52 35 43 52 35 43 52 35 43 52 35 43 52 35 43 52 35 43 52 35 43 52 35 43 52 35 43 52 35 43 52 35 43 52 166 166 166 166 166 166 166 166 166 166 166 166 35 43 52 35 43 52 35 43 52 35 43 52 35 43 52 35 43 52 35 43 52 35 43 52 35 43 52 35 43 52 35 43 52 35 43 52 35 43 52 35 43 52 35 43 52 35 43 52 35 43 52 35 43 52 35 43 52 35 43 52 35 43 52 35 43 52 35 43 52 35 43 52 35 43 52 35 43 52 35 43 52 35 43 52 35 43 52 35 43 52 35 43 52 35 43 52 35 43 52 35 43 52 35 43 52 35 43 52 35 43 52 35 43 52 35 43 52 35 43 52 35 43 52 35 43 52 35 43 52 35 43 52 35 43 52 35 43 52 35 43 52 35 43 52 
35 43 52 35 43 52 35 43 52 35 43 52 35 43 52 35 43 52 35 43 52 35 43 52 35 43 52 35 43 52 35 43 52 35 43 52 35 43 52 35 43 52 35 43 52 35 43 52 35 43 52 35 43 52 35 43 52 35 43 52 35 43 52 35 43 52 35 43 52 35 43 52 35 43 52 35 43 52 35 43 52 35 43 52 35 43 52 35 43 52 35 43 52 35 43 52 35 43 52 35 43 52 35 43 52 35 43 52 35 43 52 35 43 52 35 43 52 35 43 52 35 43 52 35 43 52 35 43 52 35 43 52 35 43 52 35 43 52 35 43 52 35 43 52 35 43 52 35 43 52 35 43 52 35 43 52 35 43 52 35 43 52 35 43 52 35 43 52 35 43 52 35 43 52 35 43 52 35 43 52 35 43 52 35 43 52 35 43 52 35 43 52 35 43 52 35 43 52 35 43 52 35 43 52 35 43 52 35 43 52 35 43 52 35 43 52 35 43 52 35 43 52 35 43 52 35 43 52 35 43 52 35 43 52 35 43 52 35 43 52 35 43 52 35 43 52 35 43 52 35 43 52 35 43 52 35 43 52 35 43 52 35 43 52 166 166 166 166 166 166 166 166 166 166 166 166 35 43 52 35 43 52 35 43 52 35 43 52 35 43 52 35 43 52 35 43 52 35 43 52 35 43 52 35 43 52 35 43 52 35 43 52 35 43 52 35 43 52 35 43 52 35 43 52 35 43 52 35 43 52 35 43 52 35 43 52 35 43 52 35 43 52 35 43 52 35 43 52 35 43 52 35 43 52 35 43 52 35 43 52 35 43 52 35 43 52 35 43 52 35 43 52 35 43 52 35 43 52 35 43 52 35 43 52 35 43 52 35 43 52 35 43 52 35 43 52 35 43 52 35 43 52 35 43 52 35 43 52 35 43 52 35 43 52 35 43 52 35 43 52 
35 43 52 35 43 52 35 43 52 35 43 52 35 43 52 35 43 52 35 43 52 35 43 52 35 43 52 35 43 52 35 43 52 35 43 52 35 43 52 35 43 52 35 43 52 35 43 52 35 43 52 35 43 52 35 43 52 35 43 52 35 43 52 35 43 52 35 43 52 35 43 52 35 43 52 35 43 52 35 43 52 35 43 52 35 43 52 35 43 52 35 43 52 35 43 52 35 43 52 35 43 52 35 43 52 35 43 52 35 43 52 35 43 52 35 43 52 35 43 52 35 43 52 35 43 52 35 43 52 35 43 52 35 43 52 35 43 52 35 43 52 35 43 52 35 43 52 35 43 52 35 43 52 35 43 52 35 43 52 35 43 52 35 43 52 35 43 52 35 43 52 35 43 52 35 43 52 35 43 52 35 43 52 35 43 52 35 43 52 35 43 52 35 43 52 35 43 52 35 43 52 35 43 52 35 43 52 35 43 52 35 43 52 35 43 52 35 43 52 35 43 52 35 43 52 35 43 52 35 43 52 35 43 52 35 43 52 35 43 52 35 43 52 35 43 52 35 43 52 35 43 52 35 43 52 35 43 52 35 43 52 35 43 52 166 166 166 166 166 166 166 166 166 166 166 166 35 43 52 35 43 52 35 43 52 35 43 52 35 43 52 35 43 52 35 43 52 35 43 52 35 43 52 35 43 52 35 43 52 35 43 52 35 43 52 35 43 52 35 43 52 35 43 52 35 43 52 35 43 52 35 43 52 35 43 52 35 43 52 35 43 52 35 43 52 35 43 52 35 43 52 35 43 52 35 43 52 35 43 52 35 43 52 35 43 52 35 43 52 35 43 52 35 43 52 35 43 52 35 43 52 35 43 52 35 43 52 35 43 52 35 43 52 35 43 52 35 43 52 35 43 52 35 43 52 35 43 52 35 43 52 35 43 52 35 43 52 35 43 52 
35 43 52 35 43 52 35 43 52 35 43 52 35 43 52 35 43 52 35 43 52 35 43 52 35 43 52 35 43 52 35 43 52 35 43 52 35 43 52 35 43 52 35 43 52 35 43 52 35 43 52 35 43 52 35 43 52 35 43 52 35 43 52 35 43 52 35 43 52 35 43 52 35 43 52 35 43 52 35 43 52 35 43 52 35 43 52 35 43 52 35 43 52 35 43 52 35 43 52 35 43 52 35 43 52 35 43 52 35 43 52 35 43 52 35 43 52 35 43 52 35 43 52 35 43 52 35 43 52 35 43 52 35 43 52 35 43 52 35 43 52 35 43 52 35 43 52 35 43 52 35 43 52 35 43 52 35 43 52 35 43 52 35 43 52 35 43 52 35 43 52 35 43 52 35 43 52 35 43 52 35 43 52 35 43 52 35 43 52 35 43 52 35 43 52 35 43 52 35 43 52 35 43 52 35 43 52 35 43 52 35 43 52 35 43 52 35 43 52 35 43 52 35 43 52 35 43 52 35 43 52 35 43 52 35 43 52 35 43 52 35 43 52 35 43 52 35 43 52 35 43 52 35 43 52 35 43 52 35 43 52 35 43 52 166 166 166 166 166 166 166 166 166 166 166 166 35 43 52 35 43 52 35 43 52 35 43 52 35 43 52 35 43 52 35 43 52 35 43 52 35 43 52 35 43 52 35 43 52 35 43 52 35 43 52 35 43 52 35 43 52 35 43 52 35 43 52 35 43 52 35 43 52 35 43 52 35 43 52 35 43 52 35 43 52 35 43 52 35 43 52 35 43 52 35 43 52 35 43 52 35 43 52 35 43 52 35 43 52 35 43 52 35 43 52 35 43 52 35 43 52 35 43 52 35 43 52 35 43 52 35 43 52 35 43 52 35 43 52 35 43 52 35 43 52 35 43 52 35 43 52 35 43 52 35 43 52 35 43 52 
35 43 52 35 43 52 35 43 52 35 43 52 35 43 52 35 43 52 35 43 52 35 43 52 35 43 52 35 43 52 35 43 52 35 43 52 35 43 52 35 43 52 35 43 52 35 43 52 35 43 52 35 43 52 35 43 52 35 43 52 35 43 52 35 43 52 35 43 52 35 43 52 35 43 52 35 43 52 35 43 52 35 43 52 35 43 52 35 43 52 35 43 52 35 43 52 35 43 52 35 43 52 35 43 52 35 43 52 35 43 52 35 43 52 35 43 52 35 43 52 35 43 52 35 43 52 35 43 52 35 43 52 35 43 52 35 43 52 35 43 52 35 43 52 35 43 52 35 43 52 35 43 52 35 43 52 35 43 52 35 43 52 35 43 52 35 43 52 35 43 52 35 43 52 35 43 52 35 43 52 35 43 52 35 43 52 35 43 52 35 43 52 35 43 52 35 43 52 35 43 52 35 43 52 35 43 52 35 43 52 35 43 52 35 43 52 35 43 52 35 43 52 35 43 52 35 43 52 35 43 52 35 43 52 35 43 52 35 43 52 35 43 52 35 43 52 35 43 52 35 43 52 35 43 52 35 43 52 35 43 52 35 43 52 166 166 166 166 166 166 166 166 166 166 166 166 35 43 52 35 43 52 35 43 52 35 43 52 35 43 52 35 43 52 35 43 52 35 43 52 35 43 52 35 43 52 35 43 52 35 43 52 35 43 52 35 43 52 35 43 52 35 43 52 35 43 52 35 43 52 35 43 52 35 43 52 35 43 52 35 43 52 35 43 52 35 43 52 35 43 52 35 43 52 35 43 52 35 43 52 35 43 52 35 43 52 35 43 52 35 43 52 35 43 52 35 43 52 35 43 52 35 43 52 35 43 52 35 43 52 35 43 52 35 43 52 35 43 52 35 43 52 35 43 52 35 43 52 35 43 52 35 43 52 35 43 52 35 43 52 
35 43 52 35 43 52 35 43 52 35 43 52 35 43 52 35 43 52 35 43 52 35 43 52 35 43 52 35 43 52 35 43 52 35 43 52 35 43 52 35 43 52 35 43 52 35 43 52 35 43 52 35 43 52 35 43 52 35 43 52 35 43 52 35 43 52 35 43 52 35 43 52 35 43 52 35 43 52 35 43 52 35 43 52 35 43 52 35 43 52 35 43 52 35 43 52 35 43 52 35 43 52 35 43 52 35 43 52 35 43 52 35 43 52 35 43 52 35 43 52 35 43 52 35 43 52 35 43 52 35 43 52 35 43 52 35 43 52 35 43 52 35 43 52 35 43 52 35 43 52 35 43 52 35 43 52 35 43 52 35 43 52 35 43 52 35 43 52 35 43 52 35 43 52 35 43 52 35 43 52 35 43 52 35 43 52 35 43 52 35 43 52 35 43 52 35 43 52 35 43 52 35 43 52 35 43 52 35 43 52 35 43 52 35 43 52 35 43 52 35 43 52 35 43 52 35 43 52 35 43 52 35 43 52 35 43 52 35 43 52 35 43 52 35 43 52 35 43 52 35 43 52 35 43 52 35 43 52 35 43 52 35 43 52 166 166 166 166 166 166 166 166 166 166 166 166 35 43 52 35 43 52 35 43 52 35 43 52 35 43 52 35 43 52 35 43 52 35 43 52 35 43 52 35 43 52 35 43 52 35 43 52 35 43 52 35 43 52 35 43 52 35 43 52 35 43 52 35 43 52 35 43 52 35 43 52 35 43 52 35 43 52 35 43 52 35 43 52 35 43 52 35 43 52 35 43 52 35 43 52 35 43 52 35 43 52 35 43 52 35 43 52 35 43 52 35 43 52 35 43 52 35 43 52 35 43 52 35 43 52 35 43 52 35 43 52 35 43 52 35 43 52 35 43 52 35 43 52 35 43 52 35 43 52 35 43 52 35 43 52 
35 43 52 35 43 52 35 43 52 35 43 52 35 43 52 35 43 52 35 43 52 35 43 52 35 43 52 35 43 52 35 43 52 35 43 52 35 43 52 35 43 52 35 43 52 35 43 52 35 43 52 35 43 52 35 43 52 35 43 52 35 43 52 35 43 52 35 43 52 35 43 52 35 43 52 35 43 52 35 43 52 35 43 52 35 43 52 35 43 52 35 43 52 35 43 52 35 43 52 35 43 52 35 43 52 35 43 52 35 43 52 35 43 52 35 43 52 35 43 52 35 43 52 35 43 52 35 43 52 35 43 52 35 43 52 35 43 52 35 43 52 35 43 52 35 43 52 35 43 52 35 43 52 35 43 52 35 43 52 35 43 52 35 43 52 35 43 52 35 43 52 35 43 52 35 43 52 35 43 52 35 43 52 35 43 52 35 43 52 35 43 52 35 43 52 35 43 52 35 43 52 35 43 52 35 43 52 35 43 52 35 43 52 35 43 52 35 43 52 35 43 52 35 43 52 35 43 52 35 43 52 35 43 52 35 43 52 35 43 52 35 43 52 35 43 52 35 43 52 35 43 52 35 43 52 35 43 52 35 43 52 35 43 52 166 166 166 166 166 166 166 166 166 166 166 166 35 43 52 35 43 52 35 43 52 35 43 52 35 43 52 35 43 52 35 43 52 35 43 52 35 43 52 35 43 52 35 43 52 35 43 52 35 43 52 35 43 52 35 43 52 35 43 52 35 43 52 35 43 52 35 43 52 35 43 52 35 43 52 35 43 52 35 43 52 35 43 52 35 43 52 35 43 52 35 43 52 35 43 52 35 43 52 35 43 52 35 43 52 35 43 52 35 43 52 35 43 52 35 43 52 35 43 52 35 43 52 35 43 52 35 43 52 35 43 52 35 43 52 35 43 52 35 43 52 35 43 52 35 43 52 35 43 52 35 43 52 35 43 52 
35 43 52 35 43 52 35 43 52 35 43 52 35 43 52 35 43 52 35 43 52 35 43 52 35 43 52 35 43 52 35 43 52 35 43 52 35 43 52 35 43 52 35 43 52 35 43 52 35 43 52 35 43 52 35 43 52 35 43 52 35 43 52 35 43 52 35 43 52 35 43 52 35 43 52 35 43 52 35 43 52 35 43 52 35 43 52 35 43 52 35 43 52 35 43 52 35 43 52 35 43 52 35 43 52 35 43 52 35 43 52 35 43 52 35 43 52 35 43 52 35 43 52 35 43 52 35 43 52 35 43 52 35 43 52 35 43 52 35 43 52 35 43 52 35 43 52 35 43 52 35 43 52 35 43 52 35 43 52 35 43 52 35 43 52 35 43 52 35 43 52 35 43 52 35 43 52 35 43 52 35 43 52 35 43 52 35 43 52 35 43 52 35 43 52 35 43 52 35 43 52 35 43 52 35 43 52 35 43 52 35 43 52 35 43 52 35 43 52 35 43 52 35 43 52 35 43 52 35 43 52 35 43 52 35 43 52 35 43 52 35 43 52 35 43 52 35 43 52 35 43 52 35 43 52 35 43 52 35 43 52 35 43 52 166 166 166 166 166 166 166 166 166 166 166 166 35 43 52 35 43 52 35 43 52 35 43 52 35 43 52 35 43 52 35 43 52 35 43 52 35 43 52 35 43 52 35 43 52 35 43 52 35 43 52 35 43 52 35 43 52 35 43 52 35 43 52 35 43 52 35 43 52 35 43 52 35 43 52 35 43 52 35 43 52 35 43 52 35 43 52 35 43 52 35 43 52 35 43 52 35 43 52 35 43 52 35 43 52 35 43 52 35 43 52 35 43 52 35 43 52 35 43 52 35 43 52 35 43 52 35 43 52 35 43 52 35 43 52 35 43 52 35 43 52 35 43 52 35 43 52 35 43 52 35 43 52 35 43 52 
35 43 52 35 43 52 35 43 52 35 43 52 35 43 52 35 43 52 35 43 52 35 43 52 35 43 52 35 43 52 35 43 52 35 43 52 35 43 52 35 43 52 35 43 52 35 43 52 35 43 52 35 43 52 35 43 52 35 43 52 35 43 52 35 43 52 35 43 52 35 43 52 35 43 52 35 43 52 35 43 52 35 43 52 35 43 52 35 43 52 35 43 52 35 43 52 35 43 52 35 43 52 35 43 52 35 43 52 35 43 52 35 43 52 35 43 52 35 43 52 35 43 52 35 43 52 35 43 52 35 43 52 35 43 52 35 43 52 35 43 52 35 43 52 35 43 52 35 43 52 35 43 52 35 43 52 35 43 52 35 43 52 35 43 52 35 43 52 35 43 52 35 43 52 35 43 52 35 43 52 35 43 52 35 43 52 35 43 52 35 43 52 35 43 52 35 43 52 35 43 52 35 43 52 35 43 52 35 43 52 35 43 52 35 43 52 35 43 52 35 43 52 35 43 52 35 43 52 35 43 52 35 43 52 35 43 52 35 43 52 35 43 52 35 43 52 35 43 52 35 43 52 35 43 52 35 43 52 35 43 52 35 43 52 166 166 166 166 166 166 166 166 166 166 166 166 35 43 52 35 43 52 35 43 52 35 43 52 35 43 52 35 43 52 35 43 52 35 43 52 35 43 52 35 43 52 35 43 52 35 43 52 35 43 52 35 43 52 35 43 52 35 43 52 35 43 52 35 43 52 35 43 52 35 43 52 35 43 52 35 43 52 35 43 52 35 43 52 35 43 52 35 43 52 35 43 52 35 43 52 35 43 52 35 43 52 35 43 52 35 43 52 35 43 52 35 43 52 35 43 52 35 43 52 35 43 52 35 43 52 35 43 52 35 43 52 35 43 52 35 43 52 35 43 52 35 43 52 35 43 52 35 43 52 35 43 52 35 43 52 
35 43 52 35 43 52 35 43 52 35 43 52 35 43 52 35 43 52 35 43 52 35 43 52 35 43 52 35 43 52 35 43 52 35 43 52 35 43 52 35 43 52 35 43 52 35 43 52 35 43 52 35 43 52 35 43 52 35 43 52 35 43 52 35 43 52 35 43 52 35 43 52 35 43 52 35 43 52 35 43 52 35 43 52 35 43 52 35 43 52 35 43 52 35 43 52 35 43 52 35 43 52 35 43 52 35 43 52 35 43 52 35 43 52 35 43 52 35 43 52 35 43 52 35 43 52 35 43 52 35 43 52 35 43 52 35 43 52 35 43 52 35 43 52 35 43 52 35 43 52 35 43 52 35 43 52 35 43 52 35 43 52 35 43 52 35 43 52 35 43 52 35 43 52 35 43 52 35 43 52 35 43 52 35 43 52 35 43 52 35 43 52 35 43 52 35 43 52 35 43 52 35 43 52 35 43 52 35 43 52 35 43 52 35 43 52 35 43 52 35 43 52 35 43 52 35 43 52 35 43 52 35 43 52 35 43 52 35 43 52 35 43 52 35 43 52 35 43 52 35 43 52 35 43 52 35 43 52 35 43 52 35 43 52 166 166 166 166 166 166 166 166 166 166 166 166 35 43 52 35 43 52 35 43 52 35 43 52 35 43 52 35 43 52 35 43 52 35 43 52 35 43 52 35 43 52 35 43 52 35 43 52 35 43 52 35 43 52 35 43 52 35 43 52 35 43 52 35 43 52 35 43 52 35 43 52 35 43 52 35 43 52 35 43 52 35 43 52 35 43 52 35 43 52 35 43 52 35 43 52 35 43 52 35 43 52 35 43 52 35 43 52 35 43 52 35 43 52 35 43 52 35 43 52 35 43 52 35 43 52 35 43 52 35 43 52 35 43 52 35 43 52 35 43 52 35 43 52 35 43 52 35 43 52 35 43 52 35 43 52 
35 43 52 35 43 52 35 43 52 35 43 52 35 43 52 35 43 52 35 43 52 35 43 52 35 43 52 35 43 52 35 43 52 35 43 52 35 43 52 35 43 52 35 43 52 35 43 52 35 43 52 35 43 52 35 43 52 35 43 52 35 43 52 35 43 52 35 43 52 35 43 52 35 43 52 35 43 52 35 43 52 35 43 52 35 43 52 35 43 52 35 43 52 35 43 52 35 43 52 35 43 52 35 43 52 35 43 52 35 43 52 35 43 52 35 43 52 35 43 52 35 43 52 35 43 52 35 43 52 35 43 52 35 43 52 35 43 52 35 43 52 35 43 52 35 43 52 35 43 52 35 43 52 35 43 52 35 43 52 35 43 52 35 43 52 35 43 52 35 43 52 35 43 52 35 43 52 35 43 52 35 43 52 35 43 52 35 43 52 35 43 52 35 43 52 35 43 52 35 43 52 35 43 52 35 43 52 35 43 52 35 43 52 35 43 52 35 43 52 35 43 52 35 43 52 35 43 52 35 43 52 35 43 52 35 43 52 35 43 52 35 43 52 35 43 52 35 43 52 35 43 52 35 43 52 35 43 52 35 43 52 35 43 52 166 166 166 166 166 166 166 166 166 166 166 166 35 43 52 35 43 52 35 43 52 35 43 52 35 43 52 35 43 52 35 43 52 35 43 52 35 43 52 35 43 52 35 43 52 35 43 52 35 43 52 35 43 52 35 43 52 35 43 52 35 43 52 35 43 52 35 43 52 35 43 52 35 43 52 35 43 52 35 43 52 35 43 52 35 43 52 35 43 52 35 43 52 35 43 52 35 43 52 35 43 52 35 43 52 35 43 52 35 43 52 35 43 52 35 43 52 35 43 52 35 43 52 35 43 52 35 43 52 35 43 52 35 43 52 35 43 52 35 43 52 35 43 52 35 43 52 35 43 52 35 43 52 35 43 52 
35 43 52 35 43 52 35 43 52 35 43 52 35 43 52 35 43 52 35 43 52 35 43 52 35 43 52 35 43 52 35 43 52 35 43 52 35 43 52 35 43 52 35 43 52 35 43 52 35 43 52 35 43 52 35 43 52 35 43 52 35 43 52 35 43 52 35 43 52 35 43 52 35 43 52 35 43 52 35 43 52 35 43 52 35 43 52 35 43 52 35 43 52 35 43 52 35 43 52 35 43 52 35 43 52 35 43 52 35 43 52 35 43 52 35 43 52 35 43 52 35 43 52 35 43 52 35 43 52 35 43 52 35 43 52 35 43 52 35 43 52 35 43 52 35 43 52 35 43 52 35 43 52 35 43 52 35 43 52 35 43 52 35 43 52 35 43 52 35 43 52 35 43 52 35 43 52 35 43 52 35 43 52 35 43 52 35 43 52 35 43 52 35 43 52 35 43 52 35 43 52 35 43 52 35 43 52 35 43 52 35 43 52 35 43 52 35 43 52 35 43 52 35 43 52 35 43 52 35 43 52 35 43 52 35 43 52 35 43 52 35 43 52 35 43 52 35 43 52 35 43 52 35 43 52 35 43 52 35 43 52 35 43 52 166 166 166 166 166 166 166 166 166 166 166 166 35 43 52 35 43 52 35 43 52 35 43 52 35 43 52 35 43 52 35 43 52 35 43 52 35 43 52 35 43 52 35 43 52 35 43 52 35 43 52 35 43 52 35 43 52 35 43 52 35 43 52 35 43 52 35 43 52 35 43 52 35 43 52 35 43 52 35 43 52 35 43 52 35 43 52 35 43 52 35 43 52 35 43 52 35 43 52 35 43 52 35 43 52 35 43 52 35 43 52 35 43 52 35 43 52 35 43 52 35 43 52 35 43 52 35 43 52 35 43 52 35 43 52 35 43 52 35 43 52 35 43 52 35 43 52 35 43 52 35 43 52 35 43 52 
35 43 52 35 43 52 35 43 52 35 43 52 35 43 52 35 43 52 35 43 52 35 43 52 35 43 52 35 43 52 35 43 52 35 43 52 35 43 52 35 43 52 35 43 52 35 43 52 35 43 52 35 43 52 35 43 52 35 43 52 35 43 52 35 43 52 35 43 52 35 43 52 35 43 52 35 43 52 35 43 52 35 43 52 35 43 52 35 43 52 35 43 52 35 43 52 35 43 52 35 43 52 35 43 52 35 43 52 35 43 52 35 43 52 35 43 52 35 43 52 35 43 52 35 43 52 35 43 52 35 43 52 35 43 52 35 43 52 35 43 52 35 43 52 35 43 52 35 43 52 35 43 52 35 43 52 35 43 52 35 43 52 35 43 52 35 43 52 35 43 52 35 43 52 35 43 52 35 43 52 35 43 52 35 43 52 35 43 52 35 43 52 35 43 52 35 43 52 35 43 52 35 43 52 35 43 52 35 43 52 35 43 52 35 43 52 35 43 52 35 43 52 35 43 52 35 43 52 35 43 52 35 43 52 35 43 52 35 43 52 35 43 52 35 43 52 35 43 52 35 43 52 35 43 52 35 43 52 35 43 52 35 43 52 166 166 166 166 166 166 166 166 166 166 166 166 35 43 52 35 43 52 35 43 52 35 43 52 35 43 52 35 43 52 35 43 52 35 43 52 35 43 52 35 43 52 35 43 52 35 43 52 35 43 52 35 43 52 35 43 52 35 43 52 35 43 52 35 43 52 35 43 52 35 43 52 35 43 52 35 43 52 35 43 52 35 43 52 35 43 52 35 43 52 35 43 52 35 43 52 35 43 52 35 43 52 35 43 52 35 43 52 35 43 52 35 43 52 35 43 52 35 43 52 35 43 52 35 43 52 35 43 52 35 43 52 35 43 52 35 43 52 35 43 52 35 43 52 35 43 52 35 43 52 35 43 52 35 43 52 
35 43 52 35 43 52 35 43 52 35 43 52 35 43 52 35 43 52 35 43 52 35 43 52 35 43 52 35 43 52 35 43 52 35 43 52 35 43 52 35 43 52 35 43 52 35 43 52 35 43 52 35 43 52 35 43 52 35 43 52 35 43 52 35 43 52 35 43 52 35 43 52 35 43 52 35 43 52 35 43 52 35 43 52 35 43 52 35 43 52 35 43 52 35 43 52 35 43 52 35 43 52 35 43 52 35 43 52 35 43 52 35 43 52 35 43 52 35 43 52 35 43 52 35 43 52 35 43 52 35 43 52 35 43 52 35 43 52 35 43 52 35 43 52 35 43 52 35 43 52 35 43 52 35 43 52 35 43 52 35 43 52 35 43 52 35 43 52 35 43 52 35 43 52 35 43 52 35 43 52 35 43 52 35 43 52 35 43 52 35 43 52 35 43 52 35 43 52 35 43 52 35 43 52 35 43 52 35 43 52 35 43 52 35 43 52 35 43 52 35 43 52 35 43 52 35 43 52 35 43 52 35 43 52 35 43 52 35 43 52 35 43 52 35 43 52 35 43 52 35 43 52 35 43 52 35 43 52 35 43 52 35 43 52 166 166 166 166 166 166 166 166 166 166 166 166 35 43 52 35 43 52 35 43 52 35 43 52 35 43 52 35 43 52 35 43 52 35 43 52 35 43 52 35 43 52 35 43 52 35 43 52 35 43 52 35 43 52 35 43 52 35 43 52 35 43 52 35 43 52 35 43 52 35 43 52 35 43 52 35 43 52 35 43 52 35 43 52 35 43 52 35 43 52 35 43 52 35 43 52 35 43 52 35 43 52 35 43 52 35 43 52 35 43 52 35 43 52 35 43 52 35 43 52 35 43 52 35 43 52 35 43 52 35 43 52 35 43 52 35 43 52 35 43 52 35 43 52 35 43 52 35 43 52 35 43 52 35 43 52 
35 43 52 35 43 52 35 43 52 35 43 52 35 43 52 35 43 52 35 43 52 35 43 52 35 43 52 35 43 52 35 43 52 35 43 52 35 43 52 35 43 52 35 43 52 35 43 52 35 43 52 35 43 52 35 43 52 35 43 52 35 43 52 35 43 52 35 43 52 35 43 52 35 43 52 35 43 52 35 43 52 35 43 52 35 43 52 35 43 52 35 43 52 35 43 52 35 43 52 35 43 52 35 43 52 35 43 52 35 43 52 35 43 52 35 43 52 35 43 52 35 43 52 35 43 52 35 43 52 35 43 52 35 43 52 35 43 52 35 43 52 35 43 52 35 43 52 35 43 52 35 43 52 35 43 52 35 43 52 35 43 52 35 43 52 35 43 52 35 43 52 35 43 52 35 43 52 35 43 52 35 43 52 35 43 52 35 43 52 35 43 52 35 43 52 35 43 52 35 43 52 35 43 52 35 43 52 35 43 52 35 43 52 35 43 52 35 43 52 35 43 52 35 43 52 35 43 52 35 43 52 35 43 52 35 43 52 35 43 52 35 43 52 35 43 52 35 43 52 35 43 52 35 43 52 35 43 52 35 43 52 35 43 52 166 166 166 166 166 166 166 166 166 166 166 166 35 43 52 35 43 52 35 43 52 35 43 52 35 43 52 35 43 52 35 43 52 35 43 52 35 43 52 35 43 52 35 43 52 35 43 52 35 43 52 35 43 52 35 43 52 35 43 52 35 43 52 35 43 52 35 43 52 35 43 52 35 43 52 35 43 52 35 43 52 35 43 52 35 43 52 35 43 52 35 43 52 35 43 52 35 43 52 35 43 52 35 43 52 35 43 52 35 43 52 35 43 52 35 43 52 35 43 52 35 43 52 35 43 52 35 43 52 35 43 52 35 43 52 35 43 52 35 43 52 35 43 52 35 43 52 35 43 52 35 43 52 35 43 52 
35 43 52 35 43 52 35 43 52 35 43 52 35 43 52 35 43 52 35 43 52 35 43 52 35 43 52 35 43 52 35 43 52 35 43 52 35 43 52 35 43 52 35 43 52 35 43 52 35 43 52 35 43 52 35 43 52 35 43 52 35 43 52 35 43 52 35 43 52 35 43 52 35 43 52 35 43 52 35 43 52 35 43 52 35 43 52 35 43 52 35 43 52 35 43 52 35 43 52 35 43 52 35 43 52 35 43 52 35 43 52 35 43 52 35 43 52 35 43 52 35 43 52 35 43 52 35 43 52 35 43 52 35 43 52 35 43 52 35 43 52 35 43 52 35 43 52 35 43 52 35 43 52 35 43 52 35 43 52 35 43 52 35 43 52 35 43 52 35 43 52 35 43 52 35 43 52 35 43 52 35 43 52 35 43 52 35 43 52 35 43 52 35 43 52 35 43 52 35 43 52 35 43 52 35 43 52 35 43 52 35 43 52 35 43 52 35 43 52 35 43 52 35 43 52 35 43 52 35 43 52 35 43 52 35 43 52 35 43 52 35 43 52 35 43 52 35 43 52 35 43 52 35 43 52 35 43 52 35 43 52 35 43 52 166 166 166 166 166 166 166 166 166 166 166 166 35 43 52 35 43 52 35 43 52 35 43 52 35 43 52 35 43 52 35 43 52 35 43 52 35 43 52 35 43 52 35 43 52 35 43 52 35 43 52 35 43 52 35 43 52 35 43 52 35 43 52 35 43 52 35 43 52 35 43 52 35 43 52 35 43 52 35 43 52 35 43 52 35 43 52 35 43 52 35 43 52 35 43 52 35 43 52 35 43 52 35 43 52 35 43 52 35 43 52 35 43 52 35 43 52 35 43 52 35 43 52 35 43 52 35 43 52 35 43 52 35 43 52 35 43 52 35 43 52 35 43 52 35 43 52 35 43 52 35 43 52 35 43 52 
35 43 52 35 43 52 35 43 52 35 43 52 226 167 59 226 167 59 226 167 59 226 167 59 80 171 119 80 171 119 80 171 119 80 171 119 80 171 119 80 171 119 80 171 119 80 171 119 80 171 119 80 171 119 80 171 119 80 171 119 80 171 119 80 171 119 80 171 119 80 171 119 80 171 119 80 171 119 80 171 119 80 171 119 80 171 119 80 171 119 80 171 119 80 171 119 80 171 119 80 171 119 80 171 119 80 171 119 80 171 119 80 171 119 80 171 119 80 171 119 80 171 119 80 171 119 80 171 119 80 171 119 80 171 119 80 171 119 80 171 119 80 171 119 80 171 119 80 171 119 80 171 119 80 171 119 166 166 166 166 166 166 166 166 166 166 166 166 166 166 166 166 166 166 166 166 166 166 166 166 166 166 166 166 166 166 166 166 166 166 166 166 166 166 166 166 166 166 166 166 166 166 166 166 166 166 166 166 166 166 166 166 166 166 166 166 166 166 166 166 166 166 166 166 166 166 166 166 166 166 166 166 166 166 166 166 166 166 166 166 166 166 166 166 166 166 166 166 166 166 166 166 166 166 166 166 166 166 166 166 166 166 166 166 220 220 220 220 220 220 220 220 220 220 220 220 166 166 166 166 166 166 166 166 166 166 166 166 166 166 166 166 166 166 166 166 166 166 166 166 166 166 166 166 166 166 166 166 166 166 166 166 166 166 166 166 166 166 166 166 166 166 166 166 166 166 166 166 166 166 166 166 166 166 166 166 166 166 166 166 166 166 166 166 166 166 166 166 166 166 166 166 166 166 166 166 166 166 166 166 166 166 166 166 166 166 166 166 166 166 166 166 166 166 166 166 166 166 166 166 166 166 166 166 166 166 166 166 166 166 166 166 166 166 166 166 226 167 59 226 167 59 226 167 59 226 167 59 35 43 52 35 43 52 35 43 52 35 43 52 
35 43 52 35 43 52 35 43 52 35 43 52 226 167 59 226 167 59 226 167 59 226 167 59 80 171 119 80 171 119 80 171 119 80 171 119 80 171 119 80 171 119 80 171 119 80 171 119 80 171 119 80 171 119 80 171 119 80 171 119 80 171 119 80 171 119 80 171 119 80 171 119 80 171 119 80 171 119 80 171 119 80 171 119 80 171 119 80 171 119 80 171 119 80 171 119 80 171 119 80 171 119 80 171 119 80 171 119 80 171 119 80 171 119 80 171 119 80 171 119 80 171 119 80 171 119 80 171 119 80 171 119 80 171 119 80 171 119 80 171 119 80 171 119 80 171 119 80 171 119 80 171 119 80 171 119 166 166 166 166 166 166 166 166 166 166 166 166 166 166 166 166 166 166 166 166 166 166 166 166 166 166 166 166 166 166 166 166 166 166 166 166 166 166 166 166 166 166 166 166 166 166 166 166 166 166 166 166 166 166 166 166 166 166 166 166 166 166 166 166 166 166 166 166 166 166 166 166 166 166 166 166 166 166 166 166 166 166 166 166 166 166 166 166 166 166 166 166 166 166 166 166 166 166 166 166 166 166 166 166 166 166 166 166 220 220 220 220 220 220 220 220 220 220 220 220 166 166 166 166 166 166 166 166 166 166 166 166 166 166 166 166 166 166 166 166 166 166 166 166 166 166 166 166 166 166 166 166 166 166 166 166 166 166 166 166 166 166 166 166 166 166 166 166 166 166 166 166 166 166 166 166 166 166 166 166 166 166 166 166 166 166 166 166 166 166 166 166 166 166 166 166 166 166 166 166 166 166 166 166 166 166 166 166 166 166 166 166 166 166 166 166 166 166 166 166 166 166 166 166 166 166 166 166 166 166 166 166 166 166 166 166 166 166 166 166 226 167 59 226 167 59 226 167 59 226 167 59 35 43 52 35 43 52 35 43 52 35 43 52 
35 43 52 35 43 52 35 43 52 35 43 52 226 167 59 226 167 59 226 167 59 226 167 59 80 171 119 80 171 119 80 171 119 80 171 119 80 171 119 80 171 119 80 171 119 80 171 119 80 171 119 80 171 119 80 171 119 80 171 119 80 171 119 80 171 119 80 171 119 80 171 119 80 171 119 80 171 119 80 171 119 80 171 119 80 171 119 80 171 119 80 171 119 80 171 119 80 171 119 80 171 119 80 171 119 80 171 119 80 171 119 80 171 119 80 171 119 80 171 119 80 171 119 80 171 119 80 171 119 80 171 119 80 171 119 80 171 119 80 171 119 80 171 119 80 171 119 80 171 119 80 171 119 80 171 119 166 166 166 166 166 166 166 166 166 166 166 166 166 166 166 166 166 166 166 166 166 166 166 166 166 166 166 166 166 166 166 166 166 166 166 166 166 166 166 166 166 166 166 166 166 166 166 166 166 166 166 166 166 166 166 166 166 166 166 166 166 166 166 166 166 166 166 166 166 166 166 166 166 166 166 166 166 166 166 166 166 166 166 166 166 166 166 166 166 166 166 166 166 166 166 166 166 166 166 166 166 166 166 166 166 166 166 166 220 220 220 220 220 220 220 220 220 220 220 220 166 166 166 166 166 166 166 166 166 166 166 166 166 166 166 166 166 166 166 166 166 166 166 166 166 166 166 166 166 166 166 166 166 166 166 166 166 166 166 166 166 166 166 166 166 166 166 166 166 166 166 166 166 166 166 166 166 166 166 166 166 166 166 166 166 166 166 166 166 166 166 166 166 166 166 166 166 166 166 166 166 166 166 166 166 166 166 166 166 166 166 166 166 166 166 166 166 166 166 166 166 166 166 166 166 166 166 166 166 166 166 166 166 166 166 166 166 166 166 166 226 167 59 226 167 59 226 167 59 226 167 59 35 43 52 35 43 52 35 43 52 35 43 52 
35 43 52 35 43 52 35 43 52 35 43 52 226 167 59 226 167 59 226 167 59 226 167 59 80 171 119 80 171 119 80 171 119 80 171 119 80 171 119 80 171 119 80 171 119 80 171 119 80 171 119 80 171 119 80 171 119 80 171 119 80 171 119 80 171 119 80 171 119 80 171 119 80 171 119 80 171 119 80 171 119 80 171 119 80 171 119 80 171 119 80 171 119 80 171 119 80 171 119 80 171 119 80 171 119 80 171 119 80 171 119 80 171 119 80 171 119 80 171 119 80 171 119 80 171 119 80 171 119 80 171 119 80 171 119 80 171 119 80 171 119 80 171 119 80 171 119 80 171 119 80 171 119 80 171 119 166 166 166 166 166 166 166 166 166 166 166 166 166 166 166 166 166 166 166 166 166 166 166 166 166 166 166 166 166 166 166 166 166 166 166 166 166 166 166 166 166 166 166 166 166 166 166 166 166 166 166 166 166 166 166 166 166 166 166 166 166 166 166 166 166 166 166 166 166 166 166 166 166 166 166 166 166 166 166 166 166 166 166 166 166 166 166 166 166 166 166 166 166 166 166 166 166 166 166 166 166 166 166 166 166 166 166 166 220 220 220 220 220 220 220 220 220 220 220 220 166 166 166 166 166 166 166 166 166 166 166 166 166 166 166 166 166 166 166 166 166 166 166 166 166 166 166 166 166 166 166 166 166 166 166 166 166 166 166 166 166 166 166 166 166 166 166 166 166 166 166 166 166 166 166 166 166 166 166 166 166 166 166 166 166 166 166 166 166 166 166 166 166 166 166 166 166 166 166 166 166 166 166 166 166 166 166 166 166 166 166 166 166 166 166 166 166 166 166 166 166 166 166 166 166 166 166 166 166 166 166 166 166 166 166 166 166 166 166 166 226 167 59 226 167 59 226 167 59 226 167 59 35 43 52 35 43 52 35 43 52 35 43 52 
35 43 52 35 43 52 35 43 52 35 43 52 35 43 52 35 43 52 35 43 52 35 43 52 35 43 52 35 43 52 35 43 52 35 43 52 35 43 52 35 43 52 35 43 52 35 43 52 35 43 52 35 43 52 35 43 52 35 43 52 35 43 52 35 43 52 35 43 52 35 43 52 35 43 52 35 43 52 35 43 52 35 43 52 35 43 52 35 43 52 35 43 52 35 43 52 35 43 52 35 43 52 35 43 52 35 43 52 35 43 52 35 43 52 35 43 52 35 43 52 35 43 52 35 43 52 35 43 52 35 43 52 35 43 52 35 43 52 35 43 52 35 43 52 99 142 189 99 142 189 99 142 189 99 142 189 35 43 52 35 43 52 35 43 52 35 43 52 35 43 52 35 43 52 35 43 52 35 43 52 35 43 52 35 43 52 35 43 52 35 43 52 35 43 52 35 43 52 35 43 52 35 43 52 35 43 52 35 43 52 35 43 52 35 43 52 35 43 52 35 43 52 35 43 52 35 43 52 35 43 52 35 43 52 35 43 52 35 43 52 35 43 52 35 43 52 35 43 52 35 43 52 35 43 52 35 43 52 35 43 52 35 43 52 118 100 69 118 100 69 118 100 69 118 100 69 35 43 52 35 43 52 35 43 52 35 43 52 35 43 52 35 43 52 35 43 52 35 43 52 35 43 52 35 43 52 35 43 52 35 43 52 35 43 52 35 43 52 35 43 52 35 43 52 35 43 52 35 43 52 35 43 52 35 43 52 35 43 52 35 43 52 35 43 52 35 43 52 35 43 52 35 43 52 35 43 52 35 43 52 35 43 52 35 43 52 35 43 52 35 43 52 35 43 52 35 43 52 35 43 52 35 43 52 35 43 52 35 43 52 35 43 52 35 43 52 35 43 52 35 43 52 35 43 52 35 43 52 35 43 52 35 43 52 35 43 52 35 43 52 
35 43 52 35 43 52 35 43 52 35 43 52 35 43 52 35 43 52 35 43 52 35 43 52 35 43 52 35 43 52 35 43 52 35 43 52 35 43 52 35 43 52 35 43 52 35 43 52 35 43 52 35 43 52 35 43 52 35 43 52 35 43 52 35 43 52 35 43 52 35 43 52 35 43 52 35 43 52 35 43 52 35 43 52 35 43 52 35 43 52 35 43 52 35 43 52 35 43 52 35 43 52 35 43 52 35 43 52 35 43 52 35 43 52 35 43 52 35 43 52 35 43 52 35 43 52 35 43 52 35 43 52 35 43 52 35 43 52 35 43 52 35 43 52 99 142 189 99 142 189 99 142 189 99 142 189 35 43 52 35 43 52 35 43 52 35 43 52 35 43 52 35 43 52 35 43 52 35 43 52 35 43 52 35 43 52 35 43 52 35 43 52 35 43 52 35 43 52 35 43 52 35 43 52 35 43 52 35 43 52 35 43 52 35 43 52 35 43 52 35 43 52 35 43 52 35 43 52 35 43 52 35 43 52 35 43 52 35 43 52 35 43 52 35 43 52 35 43 52 35 43 52 35 43 52 35 43 52 35 43 52 35 43 52 118 100 69 118 100 69 118 100 69 118 100 69 35 43 52 35 43 52 35 43 52 35 43 52 35 43 52 35 43 52 35 43 52 35 43 52 35 43 52 35 43 52 35 43 52 35 43 52 35 43 52 35 43 52 35 43 52 35 43 52 35 43 52 35 43 52 35 43 52 35 43 52 35 43 52 35 43 52 35 43 52 35 43 52 35 43 52 35 43 52 35 43 52 35 43 52 35 43 52 35 43 52 35 43 52 35 43 52 35 43 52 35 43 52 35 43 52 35 43 52 35 43 52 35 43 52 35 43 52 35 43 52 35 43 52 35 43 52 35 43 52 35 43 52 35 43 52 35 43 52 35 43 52 35 43 52 
35 43 52 35 43 52 35 43 52 35 43 52 35 43 52 35 43 52 35 43 52 35 43 52 35 43 52 35 43 52 35 43 52 35 43 52 35 43 52 35 43 52 35 43 52 35 43 52 35 43 52 35 43 52 35 43 52 35 43 52 35 43 52 35 43 52 35 43 52 35 43 52 35 43 52 35 43 52 35 43 52 35 43 52 35 43 52 35 43 52 35 43 52 35 43 52 35 43 52 35 43 52 35 43 52 35 43 52 35 43 52 35 43 52 35 43 52 35 43 52 35 43 52 35 43 52 35 43 52 35 43 52 35 43 52 35 43 52 35 43 52 35 43 52 99 142 189 99 142 189 99 142 189 99 142 189 35 43 52 35 43 52 35 43 52 35 43 52 35 43 52 35 43 52 35 43 52 35 43 52 35 43 52 35 43 52 35 43 52 35 43 52 35 43 52 35 43 52 35 43 52 35 43 52 35 43 52 35 43 52 35 43 52 35 43 52 35 43 52 35 43 52 35 43 52 35 43 52 35 43 52 35 43 52 35 43 52 35 43 52 35 43 52 35 43 52 35 43 52 35 43 52 35 43 52 35 43 52 35 43 52 35 43 52 118 100 69 118 100 69 118 100 69 118 100 69 35 43 52 35 43 52 35 43 52 35 43 52 35 43 52 35 43 52 35 43 52 35 43 52 35 43 52 35 43 52 35 43 52 35 43 52 35 43 52 35 43 52 35 43 52 35 43 52 35 43 52 35 43 52 35 43 52 35 43 52 35 43 52 35 43 52 35 43 52 35 43 52 35 43 52 35 43 52 35 43 52 35 43 52 35 43 52 35 43 52 35 43 52 35 43 52 35 43 52 35 43 52 35 43 52 35 43 52 35 43 52 35 43 52 35 43 52 35 43 52 35 43 52 35 43 52 35 43 52 35 43 52 35 43 52 35 43 52 35 43 52 35 43 52 
35 43 52 35 43 52 35 43 52 35 43 52 35 43 52 35 43 52 35 43 52 35 43 52 35 43 52 35 43 52 35 43 52 35 43 52 35 43 52 35 43 52 35 43 52 35 43 52 35 43 52 35 43 52 35 43 52 35 43 52 35 43 52 35 43 52 35 43 52 35 43 52 35 43 52 35 43 52 35 43 52 35 43 52 35 43 52 35 43 52 35 43 52 35 43 52 35 43 52 35 43 52 35 43 52 35 43 52 35 43 52 35 43 52 35 43 52 35 43 52 35 43 52 35 43 52 35 43 52 35 43 52 35 43 52 35 43 52 35 43 52 35 43 52 99 142 189 99 142 189 99 142 189 99 142 189 35 43 52 35 43 52 35 43 52 35 43 52 35 43 52 35 43 52 35 43 52 35 43 52 35 43 52 35 43 52 35 43 52 35 43 52 35 43 52 35 43 52 35 43 52 35 43 52 35 43 52 35 43 52 35 43 52 35 43 52 35 43 52 35 43 52 35 43 52 35 43 52 35 43 52 35 43 52 35 43 52 35 43 52 35 43 52 35 43 52 35 43 52 35 43 52 35 43 52 35 43 52 35 43 52 35 43 52 118 100 69 118 100 69 118 100 69 118 100 69 35 43 52 35 43 52 35 43 52 35 43 52 35 43 52 35 43 52 35 43 52 35 43 52 35 43 52 35 43 52 35 43 52 35 43 52 35 43 52 35 43 52 35 43 52 35 43 52 35 43 52 35 43 52 35 43 52 35 43 52 35 43 52 35 43 52 35 43 52 35 43 52 35 43 52 35 43 52 35 43 52 35 43 52 35 43 52 35 43 52 35 43 52 35 43 52 35 43 52 35 43 52 35 43 52 35 43 52 35 43 52 35 43 52 35 43 52 35 43 52 35 43 52 35 43 52 35 43 52 35 43 52 35 43 52 35 43 52 35 43 52 35 43 52 
35 43 52 35 43 52 35 43 52 35 43 52 35 43 52 35 43 52 35 43 52 35 43 52 35 43 52 35 43 52 35 43 52 35 43 52 35 43 52 35 43 52 35 43 52 35 43 52 35 43 52 35 43 52 35 43 52 35 43 52 35 43 52 35 43 52 35 43 52 35 43 52 35 43 52 35 43 52 35 43 52 35 43 52 35 43 52 35 43 52 35 43 52 35 43 52 35 43 52 35 43 52 35 43 52 35 43 52 35 43 52 35 43 52 35 43 52 35 43 52 35 43 52 35 43 52 35 43 52 35 43 52 35 43 52 35 43 52 35 43 52 35 43 52 99 142 189 99 142 189 99 142 189 99 142 189 35 43 52 35 43 52 35 43 52 35 43 52 35 43 52 35 43 52 35 43 52 35 43 52 35 43 52 35 43 52 35 43 52 35 43 52 35 43 52 35 43 52 35 43 52 35 43 52 35 43 52 35 43 52 35 43 52 35 43 52 35 43 52 35 43 52 35 43 52 35 43 52 35 43 52 35 43 52 35 43 52 35 43 52 35 43 52 35 43 52 35 43 52 35 43 52 35 43 52 35 43 52 35 43 52 35 43 52 118 100 69 118 100 69 118 100 69 118 100 69 35 43 52 35 43 52 35 43 52 35 43 52 35 43 52 35 43 52 35 43 52 35 43 52 35 43 52 35 43 52 35 43 52 35 43 52 35 43 52 35 43 52 35 43 52 35 43 52 35 43 52 35 43 52 35 43 52 35 43 52 35 43 52 35 43 52 35 43 52 35 43 52 35 43 52 35 43 52 35 43 52 35 43 52 35 43 52 35 43 52 35 43 52 35 43 52 35 43 52 35 43 52 35 43 52 35 43 52 35 43 52 35 43 52 35 43 52 35 43 52 35 43 52 35 43 52 35 43 52 35 43 52 35 43 52 35 43 52 35 43 52 35 43 52 
35 43 52 35 43 52 35 43 52 35 43 52 35 43 52 35 43 52 35 43 52 35 43 52 35 43 52 35 43 52 35 43 52 35 43 52 35 43 52 35 43 52 35 43 52 35 43 52 35 43 52 35 43 52 35 43 52 35 43 52 35 43 52 35 43 52 35 43 52 35 43 52 35 43 52 35 43 52 35 43 52 35 43 52 35 43 52 35 43 52 35 43 52 35 43 52 35 43 52 35 43 52 35 43 52 35 43 52 35 43 52 35 43 52 35 43 52 35 43 52 35 43 52 35 43 52 35 43 52 35 43 52 35 43 52 35 43 52 35 43 52 35 43 52 99 142 189 99 142 189 99 142 189 99 142 189 35 43 52 35 43 52 35 43 52 35 43 52 35 43 52 35 43 52 35 43 52 35 43 52 35 43 52 35 43 52 35 43 52 35 43 52 35 43 52 35 43 52 35 43 52 35 43 52 35 43 52 35 43 52 35 43 52 35 43 52 35 43 52 35 43 52 35 43 52 35 43 52 35 43 52 35 43 52 35 43 52 35 43 52 35 43 52 35 43 52 35 43 52 35 43 52 35 43 52 35 43 52 35 43 52 35 43 52 118 100 69 118 100 69 118 100 69 118 100 69 35 43 52 35 43 52 35 43 52 35 43 52 35 43 52 35 43 52 35 43 52 35 43 52 35 43 52 35 43 52 35 43 52 35 43 52 35 43 52 35 43 52 35 43 52 35 43 52 35 43 52 35 43 52 35 43 52 35 43 52 35 43 52 35 43 52 35 43 52 35 43 52 35 43 52 35 43 52 35 43 52 35 43 52 35 43 52 35 43 52 35 43 52 35 43 52 35 43 52 35 43 52 35 43 52 35 43 52 35 43 52 35 43 52 35 43 52 35 43 52 35 43 52 35 43 52 35 43 52 35 43 52 35 43 52 35 43 52 35 43 52 35 43 52 
35 43 52 35 43 52 35 43 52 35 43 52 35 43 52 35 43 52 35 43 52 35 43 52 35 43 52 35 43 52 35 43 52 35 43 52 35 43 52 35 43 52 35 43 52 35 43 52 35 43 52 35 43 52 35 43 52 35 43 52 35 43 52 35 43 52 35 43 52 35 43 52 35 43 52 35 43 52 35 43 52 35 43 52 35 43 52 35 43 52 35 43 52 35 43 52 35 43 52 35 43 52 35 43 52 35 43 52 35 43 52 35 43 52 35 43 52 35 43 52 35 43 52 35 43 52 35 43 52 35 43 52 35 43 52 35 43 52 35 43 52 35 43 52 99 142 189 99 142 189 99 142 189 99 142 189 35 43 52 35 43 52 35 43 52 35 43 52 35 43 52 35 43 52 35 43 52 35 43 52 35 43 52 35 43 52 35 43 52 35 43 52 35 43 52 35 43 52 35 43 52 35 43 52 35 43 52 35 43 52 35 43 52 35 43 52 35 43 52 35 43 52 35 43 52 35 43 52 35 43 52 35 43 52 35 43 52 35 43 52 35 43 52 35 43 52 35 43 52 35 43 52 35 43 52 35 43 52 35 43 52 35 43 52 118 100 69 118 100 69 118 100 69 118 100 69 35 43 52 35 43 52 35 43 52 35 43 52 35 43 52 35 43 52 35 43 52 35 43 52 35 43 52 35 43 52 35 43 52 35 43 52 35 43 52 35 43 52 35 43 52 35 43 52 35 43 52 35 43 52 35 43 52 35 43 52 35 43 52 35 43 52 35 43 52 35 43 52 35 43 52 35 43 52 35 43 52 35 43 52 35 43 52 35 43 52 35 43 52 35 43 52 35 43 52 35 43 52 35 43 52 35 43 52 35 43 52 35 43 52 35 43 52 35 43 52 35 43 52 35 43 52 35 43 52 35 43 52 35 43 52 35 43 52 35 43 52 35 43 52 
35 43 52 35 43 52 35 43 52 35 43 52 35 43 52 35 43 52 35 43 52 35 43 52 35 43 52 35 43 52 35 43 52 35 43 52 35 43 52 35 43 52 35 43 52 35 43 52 35 43 52 35 43 52 35 43 52 35 43 52 35 43 52 35 43 52 35 43 52 35 43 52 35 43 52 35 43 52 35 43 52 35 43 52 35 43 52 35 43 52 35 43 52 35 43 52 35 43 52 35 43 52 35 43 52 35 43 52 35 43 52 35 43 52 35 43 52 35 43 52 35 43 52 35 43 52 35 43 52 35 43 52 35 43 52 35 43 52 35 43 52 35 43 52 99 142 189 99 142 189 99 142 189 99 142 189 35 43 52 35 43 52 35 43 52 35 43 52 35 43 52 35 43 52 35 43 52 35 43 52 35 43 52 35 43 52 35 43 52 35 43 52 35 43 52 35 43 52 35 43 52 35 43 52 35 43 52 35 43 52 35 43 52 35 43 52 35 43 52 35 43 52 35 43 52 35 43 52 35 43 52 35 43 52 35 43 52 35 43 52 35 43 52 35 43 52 35 43 52 35 43 52 35 43 52 35 43 52 35 43 52 35 43 52 118 100 69 118 100 69 118 100 69 118 100 69 35 43 52 35 43 52 35 43 52 35 43 52 35 43 52 35 43 52 35 43 52 35 43 52 35 43 52 35 43 52 35 43 52 35 43 52 35 43 52 35 43 52 35 43 52 35 43 52 35 43 52 35 43 52 35 43 52 35 43 52 35 43 52 35 43 52 35 43 52 35 43 52 35 43 52 35 43 52 35 43 52 35 43 52 35 43 52 35 43 52 35 43 52 35 43 52 35 43 52 35 43 52 35 43 52 35 43 52 35 43 52 35 43 52 35 43 52 35 43 52 35 43 52 35 43 52 35 43 52 35 43 52 35 43 52 35 43 52 35 43 52 35 43 52 
35 43 52 35 43 52 35 43 52 35 43 52 35 43 52 35 43 52 35 43 52 35 43 52 35 43 52 35 43 52 35 43 52 35 43 52 35 43 52 35 43 52 35 43 52 35 43 52 35 43 52 35 43 52 35 43 52 35 43 52 35 43 52 35 43 52 35 43 52 35 43 52 35 43 52 35 43 52 35 43 52 35 43 52 35 43 52 35 43 52 35 43 52 35 43 52 35 43 52 35 43 52 35 43 52 35 43 52 35 43 52 35 43 52 35 43 52 35 43 52 35 43 52 35 43 52 35 43 52 35 43 52 35 43 52 35 43 52 35 43 52 35 43 52 99 142 189 99 142 189 99 142 189 99 142 189 45 151 191 45 151 191 45 151 191 45 151 191 45 151 191 45 151 191 45 151 191 45 151 191 45 151 191 45 151 191 45 151 191 45 151 191 45 151 191 45 151 191 45 151 191 45 151 191 45 151 191 45 151 191 45 151 191 45 151 191 35 43 52 35 43 52 35 43 52 35 43 52 35 43 52 35 43 52 35 43 52 35 43 52 35 43 52 35 43 52 35 43 52 35 43 52 35 43 52 35 43 52 35 43 52 35 43 52 118 100 69 118 100 69 118 100 69 118 100 69 35 43 52 35 43 52 35 43 52 35 43 52 35 43 52 35 43 52 35 43 52 35 43 52 35 43 52 35 43 52 35 43 52 35 43 52 35 43 52 35 43 52 35 43 52 35 43 52 35 43 52 35 43 52 35 43 52 35 43 52 35 43 52 35 43 52 35 43 52 35 43 52 35 43 52 35 43 52 35 43 52 35 43 52 35 43 52 35 43 52 35 43 52 35 43 52 35 43 52 35 43 52 35 43 52 35 43 52 35 43 52 35 43 52 35 43 52 35 43 52 35 43 52 35 43 52 35 43 52 35 43 52 35 43 52 35 43 52 35 43 52 35 43 52 
35 43 52 35 43 52 35 43 52 35 43 52 35 43 52 35 43 52 35 43 52 35 43 52 35 43 52 35 43 52 35 43 52 35 43 52 35 43 52 35 43 52 35 43 52 35 43 52 35 43 52 35 43 52 35 43 52 35 43 52 35 43 52 35 43 52 35 43 52 35 43 52 35 43 52 35 43 52 35 43 52 35 43 52 35 43 52 35 43 52 35 43 52 35 43 52 35 43 52 35 43 52 35 43 52 35 43 52 35 43 52 35 43 52 35 43 52 35 43 52 35 43 52 35 43 52 35 43 52 35 43 52 35 43 52 35 43 52 35 43 52 35 43 52 99 142 189 99 142 189 99 142 189 99 142 189 45 151 191 45 151 191 45 151 191 45 151 191 45 151 191 45 151 191 45 151 191 45 151 191 45 151 191 45 151 191 45 151 191 45 151 191 45 151 191 45 151 191 45 151 191 45 151 191 45 151 191 45 151 191 45 151 191 45 151 191 35 43 52 35 43 52 35 43 52 35 43 52 35 43 52 35 43 52 35 43 52 35 43 52 35 43 52 35 43 52 35 43 52 35 43 52 35 43 52 35 43 52 35 43 52 35 43 52 118 100 69 118 100 69 118 100 69 118 100 69 35 43 52 35 43 52 35 43 52 35 43 52 35 43 52 35 43 52 35 43 52 35 43 52 35 43 52 35 43 52 35 43 52 35 43 52 35 43 52 35 43 52 35 43 52 35 43 52 35 43 52 35 43 52 35 43 52 35 43 52 35 43 52 35 43 52 35 43 52 35 43 52 35 43 52 35 43 52 35 43 52 35 43 52 35 43 52 35 43 52 35 43 52 35 43 52 35 43 52 35 43 52 35 43 52 35 43 52 35 43 52 35 43 52 35 43 52 35 43 52 35 43 52 35 43 52 35 43 52 35 43 52 35 43 52 35 43 52 35 43 52 35 43 52 
35 43 52 35 43 52 35 43 52 35 43 52 35 43 52 35 43 52 35 43 52 35 43 52 35 43 52 35 43 52 35 43 52 35 43 52 35 43 52 35 43 52 35 43 52 35 43 52 35 43 52 35 43 52 35 43 52 35 43 52 35 43 52 35 43 52 35 43 52 35 43 52 35 43 52 35 43 52 35 43 52 35 43 52 35 43 52 35 43 52 35 43 52 35 43 52 35 43 52 35 43 52 35 43 52 35 43 52 35 43 52 35 43 52 35 43 52 35 43 52 35 43 52 35 43 52 35 43 52 35 43 52 35 43 52 35 43 52 35 43 52 35 43 52 99 142 189 99 142 189 99 142 189 99 142 189 45 151 191 45 151 191 45 151 191 45 151 191 45 151 191 45 151 191 45 151 191 45 151 191 45 151 191 45 151 191 45 151 191 45 151 191 45 151 191 45 151 191 45 151 191 45 151 191 45 151 191 45 151 191 45 151 191 45 151 191 35 43 52 35 43 52 35 43 52 35 43 52 35 43 52 35 43 52 35 43 52 35 43 52 35 43 52 35 43 52 35 43 52 35 43 52 35 43 52 35 43 52 35 43 52 35 43 52 118 100 69 118 100 69 118 100 69 118 100 69 35 43 52 35 43 52 35 43 52 35 43 52 35 43 52 35 43 52 35 43 52 35 43 52 35 43 52 35 43 52 35 43 52 35 43 52 35 43 52 35 43 52 35 43 52 35 43 52 35 43 52 35 43 52 35 43 52 35 43 52 35 43 52 35 43 52 35 43 52 35 43 52 35 43 52 35 43 52 35 43 52 35 43 52 35 43 52 35 43 52 35 43 52 35 43 52 35 43 52 35 43 52 35 43 52 35 43 52 35 43 52 35 43 52 35 43 52 35 43 52 35 43 52 35 43 52 35 43 52 35 43 52 35 43 52 35 43 52 35 43 52 35 43 52 
35 43 52 35 43 52 35 43 52 35 43 52 35 43 52 35 43 52 35 43 52 35 43 52 35 43 52 35 43 52 35 43 52 35 43 52 35 43 52 35 43 52 35 43 52 35 43 52 35 43 52 35 43 52 35 43 52 35 43 52 35 43 52 35 43 52 35 43 52 35 43 52 35 43 52 35 43 52 35 43 52 35 43 52 35 43 52 35 43 52 35 43 52 35 43 52 35 43 52 35 43 52 35 43 52 35 43 52 35 43 52 35 43 52 35 43 52 35 43 52 35 43 52 35 43 52 35 43 52 35 43 52 35 43 52 35 43 52 35 43 52 35 43 52 99 142 189 99 142 189 99 142 189 99 142 189 45 151 191 45 151 191 45 151 191 45 151 191 45 151 191 45 151 191 45 151 191 45 151 191 45 151 191 45 151 191 45 151 191 45 151 191 45 151 191 45 151 191 45 151 191 45 151 191 45 151 191 45 151 191 45 151 191 45 151 191 35 43 52 35 43 52 35 43 52 35 43 52 35 43 52 35 43 52 35 43 52 35 43 52 35 43 52 35 43 52 35 43 52 35 43 52 35 43 52 35 43 52 35 43 52 35 43 52 118 100 69 118 100 69 118 100 69 118 100 69 35 43 52 35 43 52 35 43 52 35 43 52 35 43 52 35 43 52 35 43 52 35 43 52 35 43 52 35 43 52 35 43 52 35 43 52 35 43 52 35 43 52 35 43 52 35 43 52 35 43 52 35 43 52 35 43 52 35 43 52 35 43 52 35 43 52 35 43 52 35 43 52 35 43 52 35 43 52 35 43 52 35 43 52 35 43 52 35 43 52 35 43 52 35 43 52 35 43 52 35 43 52 35 43 52 35 43 52 35 43 52 35 43 52 35 43 52 35 43 52 35 43 52 35 43 52 35 43 52 35 43 52 35 43 52 35 43 52 35 43 52 35 43 52 
35 43 52 35 43 52 35 43 52 35 43 52 35 43 52 35 43 52 35 43 52 35 43 52 35 43 52 35 43 52 35 43 52 35 43 52 35 43 52 35 43 52 35 43 52 35 43 52 35 43 52 35 43 52 35 43 52 35 43 52 35 43 52 35 43 52 35 43 52 35 43 52 35 43 52 35 43 52 35 43 52 35 43 52 35 43 52 35 43 52 35 43 52 35 43 52 35 43 52 35 43 52 35 43 52 35 43 52 35 43 52 35 43 52 35 43 52 35 43 52 35 43 52 35 43 52 35 43 52 35 43 52 35 43 52 35 43 52 35 43 52 35 43 52 35 43 52 35 43 52 35 43 52 35 43 52 35 43 52 35 43 52 35 43 52 35 43 52 35 43 52 35 43 52 35 43 52 35 43 52 35 43 52 35 43 52 35 43 52 35 43 52 35 43 52 35 43 52 35 43 52 35 43 52 99 142 189 99 142 189 99 142 189 99 142 189 35 43 52 35 43 52 35 43 52 35 43 52 35 43 52 35 43 52 35 43 52 35 43 52 35 43 52 35 43 52 35 43 52 35 43 52 35 43 52 35 43 52 35 43 52 35 43 52 118 100 69 118 100 69 118 100 69 118 100 69 35 43 52 35 43 52 35 43 52 35 43 52 35 43 52 35 43 52 35 43 52 35 43 52 35 43 52 35 43 52 35 43 52 35 43 52 35 43 52 35 43 52 35 43 52 35 43 52 35 43 52 35 43 52 35 43 52 35 43 52 35 43 52 35 43 52 35 43 52 35 43 52 35 43 52 35 43 52 35 43 52 35 43 52 35 43 52 35 43 52 35 43 52 35 43 52 35 43 52 35 43 52 35 43 52 35 43 52 35 43 52 35 43 52 35 43 52 35 43 52 35 43 52 35 43 52 35 43 52 35 43 52 35 43 52 35 43 52 35 43 52 35 43 52 
35 43 52 35 43 52 35 43 52 35 43 52 35 43 52 35 43 52 35 43 52 35 43 52 35 43 52 35 43 52 35 43 52 35 43 52 35 43 52 35 43 52 35 43 52 35 43 52 35 43 52 35 43 52 35 43 52 35 43 52 35 43 52 35 43 52 35 43 52 35 43 52 35 43 52 35 43 52 35 43 52 35 43 52 35 43 52 35 43 52 35 43 52 35 43 52 35 43 52 35 43 52 35 43 52 35 43 52 35 43 52 35 43 52 35 43 52 35 43 52 35 43 52 35 43 52 35 43 52 35 43 52 35 43 52 35 43 52 35 43 52 35 43 52 35 43 52 35 43 52 35 43 52 35 43 52 35 43 52 35 43 52 35 43 52 35 43 52 35 43 52 35 43 52 35 43 52 35 43 52 35 43 52 35 43 52 35 43 52 35 43 52 35 43 52 35 43 52 35 43 52 35 43 52 99 142 189 99 142 189 99 142 189 99 142 189 35 43 52 35 43 52 35 43 52 35 43 52 35 43 52 35 43 52 35 43 52 35 43 52 35 43 52 35 43 52 35 43 52 35 43 52 35 43 52 35 43 52 35 43 52 35 43 52 118 100 69 118 100 69 118 100 69 118 100 69 35 43 52 35 43 52 35 43 52 35 43 52 35 43 52 35 43 52 35 43 52 35 43 52 35 43 52 35 43 52 35 43 52 35 43 52 35 43 52 35 43 52 35 43 52 35 43 52 35 43 52 35 43 52 35 43 52 35 43 52 35 43 52 35 43 52 35 43 52 35 43 52 35 43 52 35 43 52 35 43 52 35 43 52 35 43 52 35 43 52 35 43 52 35 43 52 35 43 52 35 43 52 35 43 52 35 43 52 35 43 52 35 43 52 35 43 52 35 43 52 35 43 52 35 43 52 35 43 52 35 43 52 35 43 52 35 43 52 35 43 52 35 43 52 
35 43 52 35 43 52 35 43 52 35 43 52 35 43 52 35 43 52 35 43 52 35 43 52 35 43 52 35 43 52 35 43 52 35 43 52 35 43 52 35 43 52 35 43 52 35 43 52 35 43 52 35 43 52 35 43 52 35 43 52 35 43 52 35 43 52 35 43 52 35 43 52 35 43 52 35 43 52 35 43 52 35 43 52 35 43 52 35 43 52 35 43 52 35 43 52 35 43 52 35 43 52 35 43 52 35 43 52 35 43 52 35 43 52 35 43 52 35 43 52 35 43 52 35 43 52 35 43 52 35 43 52 35 43 52 35 43 52 35 43 52 35 43 52 35 43 52 35 43 52 35 43 52 35 43 52 35 43 52 35 43 52 35 43 52 35 43 52 35 43 52 35 43 52 35 43 52 35 43 52 35 43 52 35 43 52 35 43 52 35 43 52 35 43 52 35 43 52 35 43 52 35 43 52 99 142 189 99 142 189 99 142 189 99 142 189 35 43 52 35 43 52 35 43 52 35 43 52 35 43 52 35 43 52 35 43 52 35 43 52 35 43 52 35 43 52 35 43 52 35 43 52 35 43 52 35 43 52 35 43 52 35 43 52 118 100 69 118 100 69 118 100 69 118 100 69 35 43 52 35 43 52 35 43 52 35 43 52 35 43 52 35 43 52 35 43 52 35 43 52 35 43 52 35 43 52 35 43 52 35 43 52 35 43 52 35 43 52 35 43 52 35 43 52 35 43 52 35 43 52 35 43 52 35 43 52 35 43 52 35 43 52 35 43 52 35 43 52 35 43 52 35 43 52 35 43 52 35 43 52 35 43 52 35 43 52 35 43 52 35 43 52 35 43 52 35 43 52 35 43 52 35 43 52 35 43 52 35 43 52 35 43 52 35 43 52 35 43 52 35 43 52 35 43 52 35 43 52 35 43 52 35 43 52 35 43 52 35 43 52 
35 43 52 35 43 52 35 43 52 35 43 52 35 43 52 35 43 52 35 43 52 35 43 52 35 43 52 35 43 52 35 43 52 35 43 52 35 43 52 35 43 52 35 43 52 35 43 52 35 43 52 35 43 52 35 43 52 35 43 52 35 43 52 35 43 52 35 43 52 35 43 52 35 43 52 35 43 52 35 43 52 35 43 52 35 43 52 35 43 52 35 43 52 35 43 52 35 43 52 35 43 52 35 43 52 35 43 52 35 43 52 35 43 52 35 43 52 35 43 52 35 43 52 35 43 52 35 43 52 35 43 52 35 43 52 35 43 52 35 43 52 35 43 52 35 43 52 35 43 52 35 43 52 35 43 52 35 43 52 35 43 52 35 43 52 35 43 52 35 43 52 35 43 52 35 43 52 35 43 52 35 43 52 35 43 52 35 43 52 35 43 52 35 43 52 35 43 52 35 43 52 35 43 52 99 142 189 99 142 189 99 142 189 99 142 189 35 43 52 35 43 52 35 43 52 35 43 52 35 43 52 35 43 52 35 43 52 35 43 52 35 43 52 35 43 52 35 43 52 35 43 52 35 43 52 35 43 52 35 43 52 35 43 52 118 100 69 118 100 69 118 100 69 118 100 69 35 43 52 35 43 52 35 43 52 35 43 52 35 43 52 35 43 52 35 43 52 35 43 52 35 43 52 35 43 52 35 43 52 35 43 52 35 43 52 35 43 52 35 43 52 35 43 52 35 43 52 35 43 52 35 43 52 35 43 52 35 43 52 35 43 52 35 43 52 35 43 52 35 43 52 35 43 52 35 43 52 35 43 52 35 43 52 35 43 52 35 43 52 35 43 52 35 43 52 35 43 52 35 43 52 35 43 52 35 43 52 35 43 52 35 43 52 35 43 52 35 43 52 35 43 52 35 43 52 35 43 52 35 43 52 35 43 52 35 43 52 35 43 52 
35 43 52 35 43 52 35 43 52 35 43 52 35 43 52 35 43 52 35 43 52 35 43 52 35 43 52 35 43 52 35 43 52 35 43 52 35 43 52 35 43 52 35 43 52 35 43 52 35 43 52 35 43 52 35 43 52 35 43 52 35 43 52 35 43 52 35 43 52 35 43 52 35 43 52 35 43 52 35 43 52 35 43 52 35 43 52 35 43 52 35 43 52 35 43 52 35 43 52 35 43 52 35 43 52 35 43 52 35 43 52 35 43 52 35 43 52 35 43 52 35 43 52 35 43 52 35 43 52 35 43 52 35 43 52 35 43 52 35 43 52 35 43 52 35 43 52 35 43 52 35 43 52 35 43 52 35 43 52 35 43 52 35 43 52 35 43 52 35 43 52 35 43 52 35 43 52 35 43 52 35 43 52 35 43 52 35 43 52 35 43 52 35 43 52 35 43 52 35 43 52 35 43 52 99 142 189 99 142 189 99 142 189 99 142 189 35 43 52 35 43 52 35 43 52 35 43 52 35 43 52 35 43 52 35 43 52 35 43 52 35 43 52 35 43 52 35 43 52 35 43 52 35 43 52 35 43 52 35 43 52 35 43 52 118 100 69 118 100 69 118 100 69 118 100 69 35 43 52 35 43 52 35 43 52 35 43 52 35 43 52 35 43 52 35 43 52 35 43 52 35 43 52 35 43 52 35 43 52 35 43 52 35 43 52 35 43 52 35 43 52 35 43 52 35 43 52 35 43 52 35 43 52 35 43 52 35 43 52 35 43 52 35 43 52 35 43 52 35 43 52 35 43 52 35 43 52 35 43 52 35 43 52 35 43 52 35 43 52 35 43 52 35 43 52 35 43 52 35 43 52 35 43 52 35 43 52 35 43 52 35 43 52 35 43 52 35 43 52 35 43 52 35 43 52 35 43 52 35 43 52 35 43 52 35 43 52 35 43 52 
35 43 52 35 43 52 35 43 52 35 43 52 35 43 52 35 43 52 35 43 52 35 43 52 35 43 52 35 43 52 35 43 52 35 43 52 35 43 52 35 43 52 35 43 52 35 43 52 35 43 52 35 43 52 35 43 52 35 43 52 35 43 52 35 43 52 35 43 52 35 43 52 35 43 52 35 43 52 35 43 52 35 43 52 35 43 52 35 43 52 35 43 52 35 43 52 35 43 52 35 43 52 35 43 52 35 43 52 35 43 52 35 43 52 35 43 52 35 43 52 35 43 52 35 43 52 35 43 52 35 43 52 35 43 52 35 43 52 35 43 52 35 43 52 35 43 52 35 43 52 35 43 52 35 43 52 35 43 52 35 43 52 35 43 52 35 43 52 35 43 52 35 43 52 35 43 52 35 43 52 35 43 52 35 43 52 35 43 52 35 43 52 35 43 52 35 43 52 35 43 52 35 43 52 99 142 189 99 142 189 99 142 189 99 142 189 35 43 52 35 43 52 35 43 52 35 43 52 35 43 52 35 43 52 35 43 52 35 43 52 35 43 52 35 43 52 35 43 52 35 43 52 35 43 52 35 43 52 35 43 52 35 43 52 118 100 69 118 100 69 118 100 69 118 100 69 35 43 52 35 43 52 35 43 52 35 43 52 35 43 52 35 43 52 35 43 52 35 43 52 35 43 52 35 43 52 35 43 52 35 43 52 35 43 52 35 43 52 35 43 52 35 43 52 35 43 52 35 43 52 35 43 52 35 43 52 35 43 52 35 43 52 35 43 52 35 43 52 35 43 52 35 43 52 35 43 52 35 43 52 35 43 52 35 43 52 35 43 52 35 43 52 35 43 52 35 43 52 35 43 52 35 43 52 35 43 52 35 43 52 35 43 52 35 43 52 35 43 52 35 43 52 35 43 52 35 43 52 35 43 52 35 43 52 35 43 52 35 43 52 
35 43 52 35 43 52 35 43 52 35 43 52 35 43 52 35 43 52 35 43 52 35 43 52 35 43 52 35 43 52 35 43 52 35 43 52 35 43 52 35 43 52 35 43 52 35 43 52 35 43 52 35 43 52 35 43 52 35 43 52 35 43 52 35 43 52 35 43 52 35 43 52 35 43 52 35 43 52 35 43 52 35 43 52 35 43 52 35 43 52 35 43 52 35 43 52 35 43 52 35 43 52 35 43 52 35 43 52 35 43 52 35 43 52 35 43 52 35 43 52 35 43 52 35 43 52 35 43 52 35 43 52 35 43 52 35 43 52 35 43 52 35 43 52 35 43 52 35 43 52 35 43 52 35 43 52 35 43 52 35 43 52 35 43 52 35 43 52 35 43 52 35 43 52 35 43 52 35 43 52 35 43 52 35 43 52 35 43 52 35 43 52 35 43 52 35 43 52 35 43 52 35 43 52 99 142 189 99 142 189 99 142 189 99 142 189 35 43 52 35 43 52 35 43 52 35 43 52 35 43 52 35 43 52 35 43 52 35 43 52 35 43 52 35 43 52 35 43 52 35 43 52 35 43 52 35 43 52 35 43 52 35 43 52 118 100 69 118 100 69 118 100 69 118 100 69 35 43 52 35 43 52 35 43 52 35 43 52 35 43 52 35 43 52 35 43 52 35 43 52 35 43 52 35 43 52 35 43 52 35 43 52 35 43 52 35 43 52 35 43 52 35 43 52 35 43 52 35 43 52 35 43 52 35 43 52 35 43 52 35 43 52 35 43 52 35 43 52 35 43 52 35 43 52 35 43 52 35 43 52 35 43 52 35 43 52 35 43 52 35 43 52 35 43 52 35 43 52 35 43 52 35 43 52 35 43 52 35 43 52 35 43 52 35 43 52 35 43 52 35 43 52 35 43 52 35 43 52 35 43 52 35 43 52 35 43 52 35 43 52 
35 43 52 35 43 52 35 43 52 35 43 52 35 43 52 35 43 52 35 43 52 35 43 52 35 43 52 35 43 52 35 43 52 35 43 52 35 43 52 35 43 52 35 43 52 35 43 52 35 43 52 35 43 52 35 43 52 35 43 52 35 43 52 35 43 52 35 43 52 35 43 52 35 43 52 35 43 52 35 43 52 35 43 52 35 43 52 35 43 52 35 43 52 35 43 52 35 43 52 35 43 52 35 43 52 35 43 52 35 43 52 35 43 52 35 43 52 35 43 52 35 43 52 35 43 52 35 43 52 35 43 52 35 43 52 35 43 52 35 43 52 35 43 52 35 43 52 35 43 52 35 43 52 35 43 52 35 43 52 35 43 52 35 43 52 35 43 52 35 43 52 35 43 52 35 43 52 35 43 52 35 43 52 35 43 52 35 43 52 35 43 52 35 43 52 35 43 52 35 43 52 35 43 52 99 142 189 99 142 189 99 142 189 99 142 189 35 43 52 35 43 52 35 43 52 35 43 52 35 43 52 35 43 52 35 43 52 35 43 52 35 43 52 35 43 52 35 43 52 35 43 52 35 43 52 35 43 52 35 43 52 35 43 52 118 100 69 118 100 69 118 100 69 118 100 69 35 43 52 35 43 52 35 43 52 35 43 52 35 43 52 35 43 52 35 43 52 35 43 52 35 43 52 35 43 52 35 43 52 35 43 52 35 43 52 35 43 52 35 43 52 35 43 52 35 43 52 35 43 52 35 43 52 35 43 52 35 43 52 35 43 52 35 43 52 35 43 52 35 43 52 35 43 52 35 43 52 35 43 52 35 43 52 35 43 52 35 43 52 35 43 52 35 43 52 35 43 52 35 43 52 35 43 52 35 43 52 35 43 52 35 43 52 35 43 52 35 43 52 35 43 52 35 43 52 35 43 52 35 43 52 35 43 52 35 43 52 35 43 52 
35 43 52 35 43 52 35 43 52 35 43 52 35 43 52 35 43 52 35 43 52 35 43 52 35 43 52 35 43 52 35 43 52 35 43 52 35 43 52 35 43 52 35 43 52 35 43 52 35 43 52 35 43 52 35 43 52 35 43 52 35 43 52 35 43 52 35 43 52 35 43 52 35 43 52 35 43 52 35 43 52 35 43 52 35 43 52 35 43 52 35 43 52 35 43 52 35 43 52 35 43 52 35 43 52 35 43 52 35 43 52 35 43 52 35 43 52 35 43 52 35 43 52 35 43 52 35 43 52 35 43 52 35 43 52 35 43 52 35 43 52 35 43 52 35 43 52 35 43 52 35 43 52 35 43 52 35 43 52 35 43 52 35 43 52 35 43 52 35 43 52 35 43 52 35 43 52 35 43 52 35 43 52 35 43 52 35 43 52 35 43 52 35 43 52 35 43 52 35 43 52 35 43 52 226 167 59 226 167 59 226 167 59 226 167 59 166 166 166 166 166 166 166 166 166 166 166 166 166 166 166 166 166 166 166 166 166 166 166 166 166 166 166 166 166 166 166 166 166 166 166 166 166 166 166 166 166 166 166 166 166 166 166 166 118 100 69 118 100 69 118 100 69 118 100 69 35 43 52 35 43 52 35 43 52 35 43 52 35 43 52 35 43 52 35 43 52 35 43 52 35 43 52 35 43 52 35 43 52 35 43 52 35 43 52 35 43 52 35 43 52 35 43 52 35 43 52 35 43 52 35 43 52 35 43 52 35 43 52 35 43 52 35 43 52 35 43 52 35 43 52 35 43 52 35 43 52 35 43 52 35 43 52 35 43 52 35 43 52 35 43 52 35 43 52 35 43 52 35 43 52 35 43 52 35 43 52 35 43 52 35 43 52 35 43 52 35 43 52 35 43 52 35 43 52 35 43 52 35 43 52 35 43 52 35 43 52 35 43 52 
35 43 52 35 43 52 35 43 52 35 43 52 35 43 52 35 43 52 35 43 52 35 43 52 35 43 52 35 43 52 35 43 52 35 43 52 35 43 52 35 43 52 35 43 52 35 43 52 35 43 52 35 43 52 35 43 52 35 43 52 35 43 52 35 43 52 35 43 52 35 43 52 35 43 52 35 43 52 35 43 52 35 43 52 35 43 52 35 43 52 35 43 52 35 43 52 35 43 52 35 43 52 35 43 52 35 43 52 35 43 52 35 43 52 35 43 52 35 43 52 35 43 52 35 43 52 35 43 52 35 43 52 35 43 52 35 43 52 35 43 52 35 43 52 35 43 52 35 43 52 35 43 52 35 43 52 35 43 52 35 43 52 35 43 52 35 43 52 35 43 52 35 43 52 35 43 52 35 43 52 35 43 52 35 43 52 35 43 52 35 43 52 35 43 52 35 43 52 35 43 52 35 43 52 226 167 59 226 167 59 226 167 59 226 167 59 166 166 166 166 166 166 166 166 166 166 166 166 166 166 166 166 166 166 166 166 166 166 166 166 166 166 166 166 166 166 166 166 166 166 166 166 166 166 166 166 166 166 166 166 166 166 166 166 118 100 69 118 100 69 118 100 69 118 100 69 35 43 52 35 43 52 35 43 52 35 43 52 35 43 52 35 43 52 35 43 52 35 43 52 35 43 52 35 43 52 35 43 52 35 43 52 35 43 52 35 43 52 35 43 52 35 43 52 35 43 52 35 43 52 35 43 52 35 43 52 35 43 52 35 43 52 35 43 52 35 43 52 35 43 52 35 43 52 35 43 52 35 43 52 35 43 52 35 43 52 35 43 52 35 43 52 35 43 52 35 43 52 35 43 52 35 43 52 35 43 52 35 43 52 35 43 52 35 43 52 35 43 52 35 43 52 35 43 52 35 43 52 35 43 52 35 43 52 35 43 52 35 43 52 
35 43 52 35 43 52 35 43 52 35 43 52 35 43 52 35 43 52 35 43 52 35 43 52 35 43 52 35 43 52 35 43 52 35 43 52 35 43 52 35 43 52 35 43 52 35 43 52 35 43 52 35 43 52 35 43 52 35 43 52 35 43 52 35 43 52 35 43 52 35 43 52 35 43 52 35 43 52 35 43 52 35 43 52 35 43 52 35 43 52 35 43 52 35 43 52 35 43 52 35 43 52 35 43 52 35 43 52 35 43 52 35 43 52 35 43 52 35 43 52 35 43 52 35 43 52 35 43 52 35 43 52 35 43 52 35 43 52 35 43 52 35 43 52 35 43 52 35 43 52 35 43 52 35 43 52 35 43 52 35 43 52 35 43 52 35 43 52 35 43 52 35 43 52 35 43 52 35 43 52 35 43 52 35 43 52 35 43 52 35 43 52 35 43 52 35 43 52 35 43 52 35 43 52 226 167 59 226 167 59 226 167 59 226 167 59 166 166 166 166 166 166 166 166 166 166 166 166 166 166 166 166 166 166 166 166 166 166 166 166 166 166 166 166 166 166 166 166 166 166 166 166 166 166 166 166 166 166 166 166 166 166 166 166 118 100 69 118 100 69 118 100 69 118 100 69 35 43 52 35 43 52 35 43 52 35 43 52 35 43 52 35 43 52 35 43 52 35 43 52 35 43 52 35 43 52 35 43 52 35 43 52 35 43 52 35 43 52 35 43 52 35 43 52 35 43 52 35 43 52 35 43 52 35 43 52 35 43 52 35 43 52 35 43 52 35 43 52 35 43 52 35 43 52 35 43 52 35 43 52 35 43 52 35 43 52 35 43 52 35 43 52 35 43 52 35 43 52 35 43 52 35 43 52 35 43 52 35 43 52 35 43 52 35 43 52 35 43 52 35 43 52 35 43 52 35 43 52 35 43 52 35 43 52 35 43 52 35 43 52 
35 43 52 35 43 52 35 43 52 35 43 52 35 43 52 35 43 52 35 43 52 35 43 52 35 43 52 35 43 52 35 43 52 35 43 52 35 43 52 35 43 52 35 43 52 35 43 52 35 43 52 35 43 52 35 43 52 35 43 52 35 43 52 35 43 52 35 43 52 35 43 52 35 43 52 35 43 52 35 43 52 35 43 52 35 43 52 35 43 52 35 43 52 35 43 52 35 43 52 35 43 52 35 43 52 35 43 52 35 43 52 35 43 52 35 43 52 35 43 52 35 43 52 35 43 52 35 43 52 35 43 52 35 43 52 35 43 52 35 43 52 35 43 52 35 43 52 35 43 52 35 43 52 35 43 52 35 43 52 35 43 52 35 43 52 35 43 52 35 43 52 35 43 52 35 43 52 35 43 52 35 43 52 35 43 52 35 43 52 35 43 52 35 43 52 35 43 52 35 43 52 35 43 52 226 167 59 226 167 59 226 167 59 226 167 59 166 166 166 166 166 166 166 166 166 166 166 166 166 166 166 166 166 166 166 166 166 166 166 166 166 166 166 166 166 166 166 166 166 166 166 166 166 166 166 166 166 166 166 166 166 166 166 166 118 100 69 118 100 69 118 100 69 118 100 69 35 43 52 35 43 52 35 43 52 35 43 52 35 43 52 35 43 52 35 43 52 35 43 52 35 43 52 35 43 52 35 43 52 35 43 52 35 43 52 35 43 52 35 43 52 35 43 52 35 43 52 35 43 52 35 43 52 35 43 52 35 43 52 35 43 52 35 43 52 35 43 52 35 43 52 35 43 52 35 43 52 35 43 52 35 43 52 35 43 52 35 43 52 35 43 52 35 43 52 35 43 52 35 43 52 35 43 52 35 43 52 35 43 52 35 43 52 35 43 52 35 43 52 35 43 52 35 43 52 35 43 52 35 43 52 35 43 52 35 43 52 35 43 52 
35 43 52 35 43 52 35 43 52 35 43 52 35 43 52 35 43 52 35 43 52 35 43 52 35 43 52 35 43 52 35 43 52 35 43 52 35 43 52 35 43 52 35 43 52 35 43 52 35 43 52 35 43 52 35 43 52 35 43 52 35 43 52 35 43 52 35 43 52 35 43 52 35 43 52 35 43 52 35 43 52 35 43 52 35 43 52 35 43 52 35 43 52 35 43 52 35 43 52 35 43 52 35 43 52 35 43 52 35 43 52 35 43 52 35 43 52 35 43 52 35 43 52 35 43 52 35 43 52 35 43 52 35 43 52 35 43 52 35 43 52 35 43 52 35 43 52 35 43 52 35 43 52 35 43 52 35 43 52 35 43 52 35 43 52 35 43 52 35 43 52 35 43 52 35 43 52 35 43 52 35 43 52 35 43 52 35 43 52 35 43 52 35 43 52 35 43 52 35 43 52 35 43 52 35 43 52 35 43 52 35 43 52 35 43 52 35 43 52 35 43 52 35 43 52 35 43 52 35 43 52 35 43 52 35 43 52 35 43 52 35 43 52 35 43 52 35 43 52 35 43 52 35 43 52 35 43 52 35 43 52 35 43 52 35 43 52 35 43 52 35 43 52 35 43 52 35 43 52 35 43 52 35 43 52 35 43 52 35 43 52 35 43 52 35 43 52 35 43 52 35 43 52 35 43 52 35 43 52 35 43 52 35 43 52 35 43 52 35 43 52 35 43 52 35 43 52 35 43 52 35 43 52 35 43 52 35 43 52 35 43 52 35 43 52 35 43 52 35 43 52 35 43 52 35 43 52 35 43 52 35 43 52 35 43 52 35 43 52 35 43 52 35 43 52 35 43 52 35 43 52 35 43 52 35 43 52 35 43 52 35 43 52 35 43 52 35 43 52 35 43 52 35 43 52 35 43 52 35 43 52 35 43 52 35 43 52 35 43 52 
35 43 52 35 43 52 35 43 52 35 43 52 35 43 52 35 43 52 35 43 52 35 43 52 35 43 52 35 43 52 35 43 52 35 43 52 35 43 52 35 43 52 35 43 52 35 43 52 35 43 52 35 43 52 35 43 52 35 43 52 35 43 52 35 43 52 35 43 52 35 43 52 35 43 52 35 43 52 35 43 52 35 43 52 35 43 52 35 43 52 35 43 52 35 43 52 35 43 52 35 43 52 35 43 52 35 43 52 35 43 52 35 43 52 35 43 52 35 43 52 35 43 52 35 43 52 35 43 52 35 43 52 35 43 52 35 43 52 35 43 52 35 43 52 35 43 52 35 43 52 35 43 52 35 43 52 35 43 52 35 43 52 35 43 52 35 43 52 35 43 52 35 43 52 35 43 52 35 43 52 35 43 52 35 43 52 35 43 52 35 43 52 35 43 52 35 43 52 35 43 52 35 43 52 35 43 52 35 43 52 35 43 52 35 43 52 35 43 52 35 43 52 35 43 52 35 43 52 35 43 52 35 43 52 35 43 52 35 43 52 35 43 52 35 43 52 35 43 52 35 43 52 35 43 52 35 43 52 35 43 52 35 43 52 35 43 52 35 43 52 35 43 52 35 43 52 35 43 52 35 43 52 35 43 52 35 43 52 35 43 52 35 43 52 35 43 52 35 43 52 35 43 52 35 43 52 35 43 52 35 43 52 35 43 52 35 43 52 35 43 52 35 43 52 35 43 52 35 43 52 35 43 52 35 43 52 35 43 52 35 43 52 35 43 52 35 43 52 35 43 52 35 43 52 35 43 52 35 43 52 35 43 52 35 43 52 35 43 52 35 43 52 35 43 52 35 43 52 35 43 52 35 43 52 35 43 52 35 43 52 35 43 52 35 43 52 35 43 52 35 43 52 35 43 52 35 43 52 35 43 52 35 43 52 35 43 52 35 43 52 
35 43 52 35 43 52 35 43 52 35 43 52 35 43 52 35 43 52 35 43 52 35 43 52 35 43 52 35 43 52 35 43 52 35 43 52 35 43 52 35 43 52 35 43 52 35 43 52 35 43 52 35 43 52 35 43 52 35 43 52 35 43 52 35 43 52 35 43 52 35 43 52 35 43 52 35 43 52 35 43 52 35 43 52 35 43 52 35 43 52 35 43 52 35 43 52 35 43 52 35 43 52 35 43 52 35 43 52 35 43 52 35 43 52 35 43 52 35 43 52 35 43 52 35 43 52 35 43 52 35 43 52 35 43 52 35 43 52 35 43 52 35 43 52 35 43 52 35 43 52 35 43 52 35 43 52 35 43 52 35 43 52 35 43 52 35 43 52 35 43 52 35 43 52 35 43 52 35 43 52 35 43 52 35 43 52 35 43 52 35 43 52 35 43 52 35 43 52 35 43 52 35 43 52 35 43 52 35 43 52 35 43 52 35 43 52 35 43 52 35 43 52 35 43 52 35 43 52 35 43 52 35 43 52 35 43 52 35 43 52 35 43 52 35 43 52 35 43 52 35 43 52 35 43 52 35 43 52 35 43 52 35 43 52 35 43 52 35 43 52 35 43 52 35 43 52 35 43 52 35 43 52 35 43 52 35 43 52 35 43 52 35 43 52 35 43 52 35 43 52 35 43 52 35 43 52 35 43 52 35 43 52 35 43 52 35 43 52 35 43 52 35 43 52 35 43 52 35 43 52 35 43 52 35 43 52 35 43 52 35 43 52 35 43 52 35 43 52 35 43 52 35 43 52 35 43 52 35 43 52 35 43 52 35 43 52 35 43 52 35 43 52 35 43 52 35 43 52 35 43 52 35 43 52 35 43 52 35 43 52 35 43 52 35 43 52 35 43 52 35 43 52 35 43 52 35 43 52 35 43 52 35 43 52 35 43 52 35 43 52 
35 43 52 35 43 52 35 43 52 35 43 52 35 43 52 35 43 52 35 43 52 35 43 52 35 43 52 35 43 52 35 43 52 35 43 52 35 43 52 35 43 52 35 43 52 35 43 52 35 43 52 35 43 52 35 43 52 35 43 52 35 43 52 35 43 52 35 43 52 35 43 52 35 43 52 35 43 52 35 43 52 35 43 52 35 43 52 35 43 52 35 43 52 35 43 52 35 43 52 35 43 52 35 43 52 35 43 52 35 43 52 35 43 52 35 43 52 35 43 52 35 43 52 35 43 52 35 43 52 35 43 52 35 43 52 35 43 52 35 43 52 35 43 52 35 43 52 35 43 52 35 43 52 35 43 52 35 43 52 35 43 52 35 43 52 35 43 52 35 43 52 35 43 52 35 43 52 35 43 52 35 43 52 35 43 52 35 43 52 35 43 52 35 43 52 35 43 52 35 43 52 35 43 52 35 43 52 35 43 52 35 43 52 35 43 52 35 43 52 35 43 52 35 43 52 35 43 52 35 43 52 35 43 52 35 43 52 35 43 52 35 43 52 35 43 52 35 43 52 35 43 52 35 43 52 35 43 52 35 43 52 35 43 52 35 43 52 35 43 52 35 43 52 35 43 52 35 43 52 35 43 52 35 43 52 35 43 52 35 43 52 35 43 52 35 43 52 35 43 52 35 43 52 35 43 52 35 43 52 35 43 52 35 43 52 35 43 52 35 43 52 35 43 52 35 43 52 35 43 52 35 43 52 35 43 52 35 43 52 35 43 52 35 43 52 35 43 52 35 43 52 35 43 52 35 43 52 35 43 52 35 43 52 35 43 52 35 43 52 35 43 52 35 43 52 35 43 52 35 43 52 35 43 52 35 43 52 35 43 52 35 43 52 35 43 52 35 43 52 35 43 52 35 43 52 35 43 52 35 43 52 35 43 52 35 43 52 35 43 52 
